X:1
T:Missa "Mater dolorosa"
T:Jos. GRUBER, op.51
T:Missa "Mater dolorosa"
T:Agnus Dei
C:Jos. GRUBER, op.51
%%score { ( 1 2 ) | ( 3 4 ) } { ( 5 6 9 11 ) | ( 7 8 10 ) }
L:1/8
Q:1/4=80
M:4/4
K:Eb
V:1 treble nm="Soprano Alto"
V:2 treble 
V:3 bass 
V:4 bass 
V:5 treble nm="Organo"
V:6 treble 
V:9 treble 
V:11 treble 
V:7 bass 
V:8 bass 
V:10 bass 
V:1
!p!"^Andante sostenuto"!<(! z8!<)! | z8 | z8 |!>(! z8!>)! | E2 z2 z4 |!p!!<(! (B4 c2) c2!<)! | %6
w: ||||son.|Ky- * ri-|
w: ||||||
 d4 z2 f2 | (e2 d2) c2 B2 |!>(! c8!>)! | B2 z2 z4 |!f! (G4 A2) A2 | B4 z2 B2 | (c2 B2) A2 G2 | %13
w: e e-|lei- * son, e-|lei-|son.|Ky- * ri-|e e-|lei- * son, e-|
w: |||||||
!>(! F8!>)! | G4 z2!p! E2 |!>(! D8!>)! |!pp! !fermata!E8 ||"^Solo"!mf! c4 G2 G2 | %18
w: lei-|son, e-|lei-|son.|Chri- ste e-|
w: |||||
 !^!A4"^Solo"!mf! G4 | e4 c2 c2 | !^!d4 c4 |"^Tutti"!f! f4 d2 d2 | (e2 d2) c2 B2 | (B4"^-" =A4) | %24
w: lei- son,|Chri- ste e-|lei- son,|Chri- ste e-|lei- * son, e-|lei- *|
w: ||||||
 B4!p!!<(! F4!<)! |!>(! G8!>)! | !fermata!F8 || z8 |!f! (B4 c2) c2 | d4 e4 | f8 | g4 !^!g4- | %32
w: son, e-|lei-|son.||Ky- * ri-|e e-|lei-|son, Ky-|
w: ||||||||
 g3 e e2 !^!e2- | e3 c c2 c2 |!>(! (B6"^-" A2)!>)! | G4 !^!B4- | B2 A2 A2 G2 |"^-"!>(! F8!>)! | %38
w: * ri- e, Ky-|* ri- e e-|lei- *|son, Ky-|* ri- e e-|lei-|
w: ||||||
 E4!p!!<(! G4!<)! |!>(! A8!>)! |!pp! G8 |] %41
w: son, e-|lei-|son.|
w: |||
[M:4/4]!mf!"^Moderato"[Q:1/4=100][Q:1/4=100] z4"^Solo" G2 E2 | B4 B4 | c4!<(! c4 | d3 d!<)! d4 | %45
w: Et in|ter- ra|pax ho-|mi- ni- bus|
w: ||||
 z2 e4 f2 | g4 e4 | (e3"^-" d"^-" c4 |"^-""^-"!>(! B8)!>)! | !fermata!B8 | z8 | z8 | %52
w: bo- nae|vo- lun-|ta- * *||tis.|||
w: |||||||
 z4!f!"^Tutti" g2 g2 | f4 f2 f2 | g4 z4 | z8 | z2 G2 G2 c2 | (c4 =B2) B2 | c2!f! e2 e2 e2 | %59
w: be- ne-|di- ci- mus|te,||glo- ri- fi-|ca- * mus|te, glo- ri- fi-|
w: |||||||
 (e2"^-" f2"^-" d4 |"^-""^-" c6)"^-" c2 | !fermata!B8 |"^Solo"!mf! (G4 B4) |"^-" e4 c2 c2 | %64
w: ca- * *|* mus|te.|Gra- *|* ti- as|
w: |||||
 B4 G2 G2 |"^-" F8 | G4!<(! B2 e2!<)! | g4 d4 | e3 d c4 | (c4 f4) | d2 z2 z4 | z8 | %72
w: a- gi- mus|ti-|bi pro- pter|ma- gnam|glo- ri- am|tu- *|am,||
w: ||||||||
!f! z2"^Tutti" c4 c2 | c4 c4 | A4 F4 | G4 G2 G2 |!<(! F6!<)! B2 | B4 z4 |!mf! B4 B2 B2 | B4 B4 | %80
w: Rex coe-|le- stis,|De- us|Pa- ter om-|ni- po-|tens.|Do- mi- ne|Fi- li|
w: ||||||||
 c6 c2 | d3 d d4 |!f! f4 B4 | B4 e4 |!>(! c8!>)! | d4 z4 | z8 | z8 |!f! e4 f4 | g4 d4 | e3 c c4 | %91
w: u- ni-|ge- ni- te,|Je- su,|Je- su|Chri-|ste.|||A- gnus|De- i,|Fi- li- us,|
w: |||||||||||
 c4 d2 c2 | (c4 =B4) | !fermata![Gc]8 ||[K:Ab]"^Adagio"[Q:1/4=60][Q:1/4=60] z8 | %95
w: Fi- li- us|Pa- *|tris.||
w: ||||
 z4"^Solo"!mf! z2 c2 | f4 c3 B | A4 F4 | (D4 B4) | A4!p! z4 | z8 |"^-""^-"!<(! z8!<)! | z8 | %103
w: Qui|tol- lis pec-|ca- ta|mun- *|di,||||
w: ||||||||
 z4 z2 A2 | d4 A3 _G | F4 A4 | E8 | D4!mf! z4 | z4"^Tutti"!mf! (c4 | d3) d d4 | %110
w: Qui|tol- lis pec-|ca- ta|mun-|di,|sci-|su- sci- pe|
w: |||||su-|* sci- pe|
!<(! e2 e2 e2!<)! e2 | f4 c4 | (c4 =B4) | c4!f! c4 | e4 c2 B2 | A4 F2 c2 | =B4 G4 | z2!p! =D4 D2 | %118
w: de- pre- ca- ti-|o- nem|no- *|stram. Qui|se- des ad|dex- te- ram|Pa- tris,|mi- se-|
w: ||||||||
 E4 E4 | (E4 A4) | !fermata!F8 ||[K:Eb]"^Tempo I" z8 | z8 | z2!f! g2 g2 g2 | f2 f2 g4 | z8 | %126
w: re- re|no- *|bis.|||tu so- lus|Do- mi- nus,||
w: ||||||||
 z2 G4 c2 | (c4 =B4) | c2 e2 e2 e2 | e2 f2 d2 d2 | e2 ee f2 f2 | g4 f2 (B2 | %132
w: Je- su|Chri- *|ste, cum San- cto|Spi- ri- tu in|glo- ri- a De- i|Pa- tris. A-|
w: ||||||
"^-""^accelerando" e4 d2"^-" c2) | B4 (B4 |"^-" c4 B2"^-""^-" A2) | G4 (G4 |"^pesante" B6) A2 | %137
w: |men, a-||men, a-|* men,|
w: |||||
 (G8 | F8) | !fermata!E8 |][K:Bb][M:3/4]!mf!"^Moderato"[Q:1/4=100][Q:1/4=100] B4 B2 | B2 c2 d2 | %142
w: a-||men.|Pa- trem|o- mni- po-|
w: |||||
 (e4 d2) | c4 c2 | d4 c2 | B2 A2 G2 | (G4 A2) | B2 B2 B2 | e3 e c2 | d>d d2 d2- | dd c2 B2 | %151
w: ten- *|tem, fa-|cto- rem|coe- li et|ter- *|rae, vi- si-|bi- li- um|o- mni- um, et|_ in- vi- si-|
w: |||||||||
 A4 A2 | G2 G2 A2 | B4 c2 | d>d d2 dd |"^-" e6 | d2 ff d2 | (B2 e2) d2 | cc c2 c2 | d2 z2 z2 | z6 | %161
w: bi- li-|um. Et in|u- num|Do- mi- num, Je- sum|Chri-|stum, Fi- 1i- um|De- * i|U- ni- ge- ni-|tum.||
w: ||||||||||
 z6 | z6 | z6 |!<(! (c2 d2)!<)! e2 | f2 e2 d2 | c4 c2 | B4 z2 |!f! B2 B2 f2 | g2 f2 z2 | B2 B2 d2 | %171
w: |||an- * te|o- mni- a|sae- cu-|la.|De- um de|De- o,|Lu- men de|
w: ||||||||||
 e>e d2 z2 | d4 c2 | (BA) G2 G2 | (c2 e2) d2 |"^-" c6 | B2 z2 z2 ||[K:Eb]"^Solo"!mf! G>G G2 B2 | %178
w: lu- mi- ne,|De- um|ve- * rum de|De- * o|ve-|ro.|Ge- ni- tum, non|
w: |||||||
 F2 E2 EE | Ec (BA) (GF) | E2 D2 (B2- |!<(! B2 c2)!<)! d2 | e2 G2 G2 | (G2 =A2) =B2 | c2 c2 _B2 | %185
w: fa- ctum, con- sub-|stan- ti- a- * lem *|Pa- tri: per|_ _ quem|o- mni- a|fa- * cta|sunt, per quem|
w: |||||||
 A2 G2 F2 | (E2 D2) G2 | C2 z2!f!"^Tutti" G2 | (cd e2) cc | f4 f2 | e4 e2 | g>d d2 ee | %192
w: o- mni- a|fa- * cta|sunt. Qui|pro- * * pter nos|ho- mi-|nes et|pro- pter nos- tram sa-|
w: |||||||
 e2 d2!p! G2 | e2 d2 c2 |"^-" c6 | d4 d2 | d2 c2 B2 |"^-"!>(! =A6!>)! | !fermata!G6 || %199
w: 1u- tem de-|scen- dit de|coe-|lis, de-|scen- dit de|coe-|lis.|
w: |||||||
[K:Bb][M:4/4]"^Choral"!p!"^Adagio"[Q:1/4=60][Q:1/4=60] c4 B2 c2 | B3 A G2 G2 | B3 A G2 B2 | c6 z2 | %203
w: Et in- car-|na- tus est de|Spi- ri- tu San-|cto|
w: ||||
 B3 A G2 F2 | E4 G4 | F4 z2 G2 | F4 G4 | F6!>(! E2 | D6!>)! z2 | z8 | z8 | z8 | z8 | z4 z2!f! G2 | %214
w: ex Ma- ri- a|Vir- gi-|ne: et|ho- mo|fa- ctus|est.||||||
w: |||||||||||
!<(! G3 G!<)! =B2 d2 | (e6!>)!!>(! dc) | =B4!p!!<(! (B4!<)! | c4)!p!!>)!!>(! =B4 |!f!!<(! z8!<)! | %219
w: ||to pas-|* sus,||
w: |||||
"^-" c6 c2 | z2!p!!<(! C4!<)! D2 | E8 |!>(! D8!>)! | !fermata!C8 ||[K:Eb][M:3/4]"^Tempo I" z6 | %225
w: * sus|et se-|pul-|tus|est.||
w: pas- sus||||||
!f! z6 | z6 | z2 z2!f! G2 | A2 A2 c2 | f6 | d2 B2 B2 | e2 e2 e2 | (e2"^-" d2 c2) | B2 B2 BB | %234
w: ||se-|cun- dum Scrip-|tu-|ras, et a-|scen- dit in|coe- * *|lum: se- det ad|
w: |||||||||
 B2 G2 E2 |"^-" B6 | B4 B2 | G3 G GG | d4 =B2 | G4 G2 | e>e e2 ff | g6 | e4 e2- | e2 d2!p! c2 | %244
w: dex- te- ram|Pa-|tris. Et|i- te- rum ven-|tu- rus|est cum|glo- ri- a ju- di-|ca-|re vi-|* vos et|
w: ||||||||||
 G4 G2 | G2!f! d2 d2 | e2 d2 c2 | c4 d2 |"^-" c6 | B2 z2 z2 ||[K:F]!mf!"^Solo" FF A2 cc | d4 c2 | %252
w: mor- tu-|os, cu- jus|re- gni non|e- rit|fi-|nis.|Et in Spi- ri- tum|San- ctum,|
w: ||||||||
 f>c c2 cc | (c2 B2) A2 | A2 G2 z2 | G4 d2 | e2 c2 cc | d4 ef | g2!mf! e2"^Tutti" cc | c2 _A2 A2 | %260
w: Do- mi- num, et vi-|vi- * fi-|can- tem:|qui ex|Pa- tre Fi- 1i-|o- que pro-|ce- dit. Qui cum|Pa- tre, et|
w: ||||||||
 _A>G G2!p! cc | (c2 _A2) A2 | _A2 G2 G2 |!f! (G2 f2) e2 | (e2 d2) c2 | (c=B c2"^-" d2) | %266
w: Fi- li- o si- mul|a- * do-|ra- tur, et|con- * glo-|ri- * fi-|ca- * * *|
w: ||||||
 d2!f! G2 G2 ||[K:Bb] c3 G E2 | E4 F2 |"^-" G6 | G4 G2 | E4 F2 | G2 G2 G2 | _A4 A2 | G4 G2 | %275
w: tur: qui lo-|cu- tus est|per Pro-|phe-|tas. Et|u- nam,|san- ctam, Ca-|tho- li-|cam, et|
w: |||||||||
 (e2 d2) c2 | c>c d2 d2 | c4 c2 | B2"^Solo""^Solo"!mf! z2 d2 | d>c BB cd | e2 d2 z2 | z6 | z6 | %283
w: a- * po-|sto- li- cam Ec-|cle- si-|am. Con-|fi- te- or u- num ba-|pti- sma|||
w: ||||||||
 z6 | z6 |"^Tutti"!<(! c4!<)! c2 | d4 B2 | A3 A AA | B4 B2 | e4 d2 |"^-" ^c6 | d2 z2 z2 | z6 | z6 | %294
w: ||Et ex-|spe- cto|re- sur- re- cti-|o- nem|mor- tu-|o-|rum.|||
w: |||||||||||
 z6 | z2 z2!mf! F2 | d2 d2 d2 | f4 d2 | c4 d2 | B2 z2 z2 |!f! e6 | d2 z2 z2 | c6 | B2 B2 e2 | (d6 | %305
w: |et|vi- tam ven-|tu- ri|sae- cu-|li.|A-|men,|a-|men, a- men,|a-|
w: |||||||||||
 c6) | B2 z2 z2 | z6 |][K:Eb][M:4/4]!p!"^Andante"[Q:1/4=80][Q:1/4=80] (E2 F2"^-" GA)!p! B2 | %309
w: |men.||San- * * ctus, *|
w: ||||
 (B2 A2"^-" G2"^-" F2) | G8 |!mf!"^-"!mf! z8 | (e2 d2"^-" cd"^-" =B2) | c4!f! c2 e2 | f3 B B4 | %315
w: san- * * *|ctus,||san- * * * *|ctus, san- ctus|Do- mi- nus|
w: ||||||
 g4 f4 | e6 e2 | !fermata!d8 ||!ff!"^Allegretto"[Q:1/4=100][Q:1/4=100] c4 c2 c2 | e4 c2 B2 | %320
w: De- us|Sa- ba-|oth.|Ple- ni sunt|coe- li, et|
w: |||||
 (A6 B2) | c4 (c4 | =B3) B B4 | (c2"^-" d2"^-" e2) f2 | g4 (d4 | e3) e d4 |"^-" c8 | %327
w: ter- *|ra glo-|* ri- a|tu- * * *|a, glo-|* ri- a|tu-|
w: |||||||
 !fermata!B4!f! z4 | z8 | z8 | z4!f! z2 e2 | g4 c4 | z2 f4 e2 | (d2 c2) B2 A2 | G4 A4 | F6 F2 | %336
w: a.||||* ho-|* ex-|cel- * sis, ho-|san- na|in ex-|
w: |||Ho-|san- na|||||
 (G2 A2) B2 GG |!>(! F8!>)! | E4 E2 E2 |!<(! (E2 A4"^-" c2)!<)! | !fermata!e8 |] %341
w: cel- * sis, in ex-|cel-|sis, in ex-|cel- * *|sis.|
w: |||||
[K:Ab][M:4/4]!p!"^Andante sostenuto"[Q:1/4=80][Q:1/4=80] (A2 c2"^-" e2) A2 | B4!p! c4 | %343
w: Be- * * ne-|di- ctus,|
w: ||
 (B2"^-" e3 =d) e2 | (e2 =dc) =B4 | (c4"^-" _B2) c2 | d4 c2 B2 | A2 AA d2 cc | (B4 c2) c2 | B4 z4 | %350
w: be- * * ne-|di- * * ctus,|be- * ne-|di- ctus qui|ve- nit in no- mi- ne|Do- * mi-|ni.|
w: |||||||
 z8 | (A2"^-" c2"^-""^-" e2) A2 | B4 c2 A2 | !^!f4 e2 d2 | c4 c2 c2 | (d4 B2) B2 | A4 z2!f! A2 | %357
w: |be- * * ne-|di- ctus qui|ve- nit in|no- mi- ne|Do- * mi-|ni. Ho-|
w: |||||||
"^-" e4- eeee | e4 c2 cc |"^-""^-" B8 | A4!p! E2 E2 |!<(! F8!<)! |!>(! !fermata!E8!>)! |] %363
w: san- * na in ex-|cel- sis, in ex-|cel-|sis, in ex-|cel-|sis.|
w: ||||||
[K:Eb][M:4/4]"^Solo"!mf!"^Larghetto" z8 | z8 | z8 | z8 |"^-"!>(! z8!>)! | z4"^Tutti"!p!!p! B2 B2 | %369
w: |||||mi- se-|
w: ||||||
 !^!B4 B4 | z2!f! c4 c2 | d4 e4 |"^-""^-" d8 | c4 z4 |!mf! z8 |"^Solo" B4 c4 | B4 E2 E2 | %377
w: re- re,|mi- se-|re- re|no-|bis.||A- gnus|De- i, qui|
w: ||||||||
 !^!A4 G2 G2 | !^!c4 B4 |"^-"!>(! A8!>)! |!mf! G4 d2 d2 | !^!e4 d4 | z2!f! e4 f2 | f4 e4 | %384
w: tol- lis pec-|ca- ta|mun-|di: mi\- se-|re- re,|mi- se-|re- *|
w: |||||||
 (e4 d4) | e4 z4 | z8 |!f! G4 A4 | G4 C2 C2 | !^!F4 E2 E2 | !^!A4 G4 |"^-" c8 | B4!mf! z4 || %393
w: no- *|bis.||A- gnus|De- i, qui|tol- lis pec-|ca- ta|mun-|di:|
w: |||||||||
"^Solo" G4 B4 | (B4 A2) G2 | F8 | G4 z4 | z8 | z8 | z8 | z8 |!mf!"^Tutti" G4!<(! B4 | %402
w: do- na|no- * bis|pa-|cem,|||||do- na|
w: |||||||||
 (B4 A2)!<)! G2 |"^-" F8 | G4!p! D2 D2 | E4 F4 |!>(! D8!>)! | E4!p! E2 F2 |!<(! G8!<)! | %409
w: no- * bis|pa-|cem, do- na|no- bis|pa-|cem, no- bis|pa-|
w: |||||||
!>(! E4!>)! z4 | z8 |] %411
w: cem.||
w: ||
V:2
 (E4 F2) F2 | G4 z2 B2 | (A2 G2) F2 E2 | F8 | x8 | z8 | z8 | z8 | z8 | z8 | E6 E2 | E4 x2 E2 | %12
 E4 E2 E2 | (E4 D4) | E4 x2 C2 | (C4 =B,4) | C8 || z8 | z8 | G4 G2 G2 | (!^!A2 GF) E4 | A4 F2 F2 | %22
 G4 G2 F2 | E8 | D4 D4 | E8 | D8 || x8 | E4 E4 | F4 (E2 G2) | B8 | B4 (!^!G4 | E3) G G2 (!^!G2 | %33
 A3) A A2 E2 | (E4 D4) | E4 (!^!_D4 | C2) C2 =D2 E2 | (E4 D4) | E4 E4 | E8 | E8 |][M:4/4] z8 | z8 | %43
 z8 | z8 | z8 | z8 | z8 | z8 | z8 | x8 | x8 | x4 B2 B2 | B4 B2 B2 | B4 x4 | x8 | x2 E2 E2 G2 | %57
 F6 F2 | E2 G2 G2 G2 | F8- | F6 E2 | D8 | z8 | z8 | z8 | z8 | z8 | z8 | z8 | z8 | z8 | x8 | %72
 x2 (C2 D2) E2 | F4 E4 | E4 D4 | E4 E2 E2 | D6 F2 | F4 x4 | B4 B2 B2 | B4 B4 | c6 c2 | d3 d d4 | %82
 F4 F4 | G4 G4 | F8 | F4 x4 | x8 | x8 | G4 c4 | =B4 G4 | G3 G G4 | A4 A2 A2 | G8 | x8 ||[K:Ab] x8 | %95
 z8 | z8 | z8 | z8 | z4 E2 E2 | F4 A4 | (E6!>(! F_G)!>)! | F4 z4 | x8 | z8 | z8 | z8 | z4 F4- | %108
 F3 F F4 | F3 F F4 | A2 A2 A2 A2 | A4 A4 | G8 | G4 c4 | e4 c2 B2 | A4 F2 c2 | =B4 G4 | %117
 x2 =B,4 B,2 | C4 C4 | (C4 E4) | =D8 ||[K:Eb] x8 | x8 | x2 B2 B2 B2 | B2 B2 B4 | x8 | x2 E4 G2 | %127
 G8 | G2 G2 G2 G2 | F2 F2 F2 F2 | B2 BB B2 B2 | B4 B2 (B2 | G4 A4) | B4 (E4- | E2 A2 G2 F2) | %135
 E4 E4- | E4 E4 | (E8 | D8) | E8 |][K:Bb][M:3/4] F4 F2 | F2 F2 F2 | (G4 F2) | F4 F2 | F4 E2 | %145
 D2 D2 G2 | G6 | G2 G2 G2 | G3 G F2 | F>F F2 B2- | BB A2 G2 | (G2 ^F=E) F2 | G2 z2 z2 | G4 G2 | %154
 G>G G2 GG | (G2 cB A2) | B2 BB B2 | (G2 A2) B2 | BB B2 A2 | B2 x2 x2 | x6 | x6 | x6 | x6 | %164
 (A2 B2) c2 | d2 c2 B2 | (B2 AG) A2 | B4 x2 | B2 B2 B2 | B2 B2 x2 | B2 G2 G2 | G>G G2 x2 | d4 c2 | %173
 (BA) G2 G2 | (G2 A2) B2 | (B2 AG A2) | B2 x2 x2 ||[K:Eb] z6 | z6 | z6 | z6 | z6 | z6 | z6 | z6 | %185
 z6 | z6 | z2 z2 G2 | G4 GG | A4 A2 | G4 G2 | G>G G2 GG | G2 G2 G2 | G2 G2 G2 | =A6 | B4 B2 | %196
 B2 =A2 G2 | (G4 ^F2) | G6 ||[K:Bb][M:4/4] c4 B2 c2 | B3 A G2 G2 | B3 A G2 B2 | c6 x2 | %203
 B3 A G2 F2 | E4 G4 | F4 x2 G2 | F4 G4 | F6 E2 | D6 x2 | x8 | x8 | x8 | x8 | x4 x2 E2 | %214
 D3 D G2 G2 | (G6 _A2) | G4 G4- | G4 G4 | (G6 F2 | E4) E4 | x2 C4 D2 | E8 | D8 | C8 || %224
[K:Eb][M:3/4] x6 | x6 | C2 D2 E2 | F2 F2 E2 | F2 F2 A2 | A6 | F2 B2 B2 | G2 A2 B2 | (c2 B2 A2) | %233
 G2 B2 BB | B2 G2 E2 | B6 | B4 B2 | G3 G GG | d4 =B2 | G4 G2 | G>G G2 _BB | B6 | G4 E2- | %243
 E2 D2 C2 | (=B,2 D2) C2 | =B,2 G2 G2 | G2 G2 G2 | =A4 B2 | (B2 =AG A2) | B2 x2 x2 ||[K:F] z6 | %251
 z6 | z6 | z6 | z6 | z6 | z6 | z6 | z2 z2 GG | _A2 F2 F2 | F>E E2 GG | (_A2 F2) F2 | F2 E2 E2 | %263
 G4 G2 | G4 G2 | ^F6 | G2 G2 G2 ||[K:Bb] c3 G E2 | E4 F2 | G6 | G4 G2 | C4 D2 | E2 E2 E2 | F4 F2 | %274
 E4 E2 | G4 G2 | A>A B2 B2 | (B2 G2) A2 | B2 x2 B2 | B>A GG AB | c2 B2 x2 | x6 | x6 | x6 | x6 | %285
 F4 F2 | F4 F2 | E3 E EE | D4 D2 | G4 G2 | G6 | ^F2 x2 x2 | x6 | x6 | x6 | x4 F2 | F2 F2 F2 | %297
 F4 F2 | (G2 F2) F2 | D2 x2 x2 | G6 | F2 x2 x2 | E6 | D2 G2 G2 | (F6 | E6) | D2 x2 x2 | x6 |] %308
[K:Eb][M:4/4] z8 | (G2 F2 E2 D2) | E8 | (C2 D2 EF) G2 | (G4 GA G2) | G4 G2 G2 | B3 B B4 | B6 A2 | %316
 G4 G4 | G8 || c4 c2 c2 | e4 c2 B2 | (A6 B2) | c4 G4- | G3 G G4 | (G6 c2) | =B4 G4- | G3 G G4 | %326
 (G4 F2 E2) | D4 z2 B2 | c4 F4 | z2 B4 _A2 | (G2 F2) E2 z2 | z2 E2 A2 G2 | (F3 E D2) C2 | %333
 (B,2 C2) D2 D2 | E4 E4 | (E2 DC D2) D2 | (E2 F2) G2 EE | (E4 D4) | E4 E2 E2 | (E6 A2) | G8 |] %341
[K:Ab][M:4/4] z8 | z8 | (E2 G2 B2) E2 | F4 (G2 F2) | (E2 A2 G2) (AG) | F4 =E2 E2 | F2 FF F2 AA | %348
 (G4 A2) A2 | G4 z2 GG | =D4 E2 E2- | E6 F2 | G4 A2 A2 | !^!A4 G2 G2 | A4 A2 A2 | (A4 G2) G2 | %356
 A4 x2 A2 | E4- EEEE | E4 A2 AA | (A2!>(! GF G4)!>)! | A4 C2 C2 | D8 | C8 |][K:Eb][M:4/4] G4 A4 | %364
 G4 C2 C2 | !^!F4 E2 E2 | !^!A4 G4 | F8 | E4 G2 G2 | !^!F4 F4 | x2 G4 G2 | G4 G4 | (G2 D2 G2 F2) | %373
 E4 x4 | x8 | z8 | z8 | z8 | z8 | z8 | z4 G2 G2 | !^!G4 G4 | x2 G4 =A2 | B6 G2 | F8 | G4 x4 | x8 | %387
 G4 A4 | G4 C2 C2 | !^!F4 E2 E2 | !^!A4 G4 | c8 | B4 x4 || z8 | z8 | z8 | z8 | x8 | x8 | x8 | x8 | %401
 E4 E4 | E6 E2 | (E4 D4) | D4 D2 D2 | C4 C4 | B,8 | B,4 E2 D2 | E8 | B,4 x4 | x8 |] %411
V:3
"^TenoreBasso" z8 | z8 | z8 | z8 | z8 | z8 | z8 | z8 | z8 | z8 |!f! B,4 B,4 | B,4 z2 B,2 | %12
w: ||||||||||||
w: ||||||||||||
w: ||||||||||||
w: ||||||||||||
 A,2 B,2 B,2 B,2 |!>(! [B,,B,]8!>)! | B,4!p! z2!p! G,2 |!>(! [G,,G,]8!>)! |!pp! G,8 || z8 | %18
w: ||||||
w: ||||||
w: ||||||
w: |||lei-|son.||
"^Solo""^Solo"!mf! z8 | C4 C2 C2 | !^!C2 =B,2!f! C4 |"^Tutti" C4 _B,2 B,2 | B,4 B,2 B,2 | C6 F,2 | %24
w: ||||||
w: ||||||
w: ||||||
w: ||||||
 F,4!p!!<(! B,4!<)! |!>(! B,8!>)! | B,8 ||!f!!f! z8 | E4 C4 | B,4 B,2 E2 | E4 D4 | E4 !^!E4 | %32
w: ||||||||
w: ||||||||
w: ||||||||
w: ||||||||
 C3 C C2 !^!C2- | C3 E E2 A,2 |!>(! F,8!>)! | E,4 !^!E,4- | E,2 F,2 F,2 G,A, |!>(! B,6 A,2!>)! | %38
w: ||||||
w: ||||||
w: ||||||
w: ||||||
 G,4!<(! B,4!<)! |!>(! C8!>)! |!pp! !fermata!B,8 |][M:4/4] z8 | z8 | z8 | z8 | z8 | z8 | z8 | z8 | %49
w: |||||||||||
w: |||||||||||
w: |||||||||||
w: |||||||||||
 z8 |!f! E,4 G,4 | B,4 C2 C2 | B,4 E2 E2 | E4 D2 D2 | E4 E,2 E,2 | G,4 A,2 A,2 | G,2 C2 C2 E2 | %57
w: ||||||||
w: ||||||||
w: |Lau- *|da- * mus|te, * *||* a- do-|ra- * mus|te, * * *|
w: ||||||||
 D4 D4 | C2!f! C2 C2 C2 | C4 B,4 | B,2 =A,G, A,2 A,2 | B,8 | z8 | z8 | z8 | z8 | z8 | z8 | z8 | %69
w: ||||||||||||
w: ||||||||||||
w: ||||||||||||
w: ||||||||||||
 z8 | z2!f! G,2 =A,2 =B,B, | C4 C4 | z2 C4 C2 | C4 C4 | C4 B,4 | B,4 B,2 B,2 |!<(! B,6!<)! D2 | %77
w: ||||||||
w: ||||||||
w: |Do- * mi- ne|De- us,||||||
w: ||||||||
 D4 z4 | z8 | z8 | z8 | z8 |!f! D4 D4 | E4 B,4 |!>(! B,4 =A,4!>)! | B,4 z4 |!f! B,4 B,2 B,2 | %87
w: ||||||||||
w: ||||||||||
w: |||||||||Do- mi- ne|
w: ||||||||||
 B,4 B,4 |!f! E4 C4 | D4 =B,4 | C3 C C4 | C4 F2 E2 | [G,D]8 | E8 ||[K:Ab] z8 | z8 | z8 | z8 | z8 | %99
w: ||||||||||||
w: ||||||||||||
w: De- us||||||||||||
w: ||||||||||||
 z4!p! C2 C2 | D4 D4 |!<(! D2 CB,!>)!!>(! C4!<)! | D4 z4 | z8 | z8 | z8 | z8 | z8 | z4!mf! =A,4 | %109
w: ||||||||||
w: ||||||||||
w: |||||||||su-|
w: ||||||||||
 B,3 B, B,4 |!<(! C2 C2 C2!<)! C2 | C4 F4 | [G,=D]8 | E4!f! C4 | E4 C2 B,2 | A,4 F,2 C2 | %116
w: |||||||
w: |||||||
w: * sci- pe|||||||
w: |||||||
 =B,4 G,4 |!p! z2 G,4 G,2 | G,4 G,4 | A,4 C4 | B,8 ||[K:Eb]!f! E,3 E, E,2 G,2 | B,2 B,2 C4 | %123
w: |||||||
w: |||||||
w: |||||Quo- ni- am tu|so- lus San-|
w: |||||||
 B,2 E2 E2 E2 | E2 D2 E2!f! E,2 | G,2 G,G, A,3 A, | G,2 C4 E2 | [G,D]8 | E2 C2 C2 C2 | %129
w: ||||||
w: ||||||
w: ctus, * * *|* * * .tu|so- lus Al- tis- si-|mus, * *|||
w: ||||||
 C2 C2 B,2 B,2 | B,2 B,B, D2 D2 | E4 D2 B,2- | B,8 | B,4 E4- | E4 D4 | E4 C4 | _D4 C4 | B,8- | %138
w: |||||||||
w: |||||||||
w: |||||||||
w: |||||||||
 [A,B,]8 | [G,B,]8 |][K:Bb][M:3/4]!mf! D4 D2 | D2 A,2 B,2 | B,6 | A,4 A,2 | F,2 G,2 A,2 | %145
w: |||||||
w: |||||||
w: |||||||
w: |||||||
 B,2 C2 D2 | E6 | D2 D2 D2 | C3 C A,2 | B,>B, B,2 z2 | B,B, C2 D2 | D4 D2 | B,2 z2 z2 | G,4 A,2 | %154
w: |||||||||
w: |||||||||
w: |||||||||
w: |||||||||
 B,>B, B,2 B,B, | C4 F2 | B,2 DD B,2 | E2 C2 B,2 | EE F2 F,2 | B,2 z2 z2 | z6 | z2 z2 D,2 | %162
w: ||||||||
w: ||||||||
w: |||||||an-|
w: ||||||||
 G,2"^-" A,2 B,2 | C2 D2 E2 |!<(! F4!<)! E2 | D2 E2 F2 | F4 E2 | D4 z2 |!f! D2 D2 D2 | E2 D2 z2 | %170
w: ||||||||
w: ||||||||
w: * * te|o- mni- a,|||||||
w: ||||||||
 D2 D2 B,2 | C>C B,2 z2 | D4 C2 | B,A, G,2 G,2 | E4 F2 | F4 E2 | D2 z2 z2 ||[K:Eb] z6 | z6 | z6 | %180
w: ||||||||||
w: ||||||||||
w: ||||||||||
w: ||||||||||
 z6 | z6 | z6 | z6 | z6 | z6 | z6 | z2 z2!f! G,2 | E2 C2 CC | A,B, C2 D2 | E4 C2 | D>=B, B,2 CC | %192
w: ||||||||||||
w: ||||||||||||
w: ||||||||||||
w: ||||||||||||
 C2 =B,2!p! G,2 | C2 D2 E2 | F2 ED C2 |!p! B,4 D2 | D2 D2 D2 |!>(! D2 CB, =A,2!>)! | =B,6 || %199
w: |||||||
w: |||||||
w: |||||||
w: |||||||
[K:Bb][M:4/4] z8 | z8 | z8 | z8 | z8 | z8 | z8 | z8 | z8 | z8 | z2!f! G,3 A, B,G, | E4 B,2 G,2 | %211
w: ||||||||||||
w: ||||||||||||
w: ||||||||||Cru- * ci- *|fi- xus e-|
w: ||||||||||||
 C3 C C2 C2 | F,6"^-""^-" G,_A, | G,4 z2 B,2 |!<(! =B,3 B,!<)! D2 B,2 |"^-" C6"^-" FE | %216
w: |||||
w: |||||
w: * ti- am pro|no- * *|bis: sub|Pon- ti- o Pi-|la- * *|
w: |||||
 D4!p!!<(! D4!<)! | E4!>)!!>(! D4 | z2!<(! =B,6!<)! |!f! C4 C4 |!p! z2!<(! C,4!<)! D,2 | E,8 | %222
w: ||||||
w: ||||||
w: ||||||
w: ||||||
!>(! D,8!>)! | !fermata!C,8 ||[K:Eb][M:3/4]!f! z6 | z6 |!f! C2 C2 C2 | C2 C2 C2 | C2 C2 C2 | %229
w: |||||||
w: |||||||
w: |||||||
w: |||||||
"^voll" C6 | B,2 B,2 B,2 | E2 E2 E2 | E6 | E2 B,2 B,B, | B,2 G,2 E,2 | B,6 | B,4 B,2 | %237
w: ||||||||
w: ||||||||
w: ||||||||
w: ||||||||
 G,3 G, G,G, | D4 =B,2 | G,4 G,2 | C>C C2 DD | E6 | B,4 E2- | E2 D2!p! C2 | G,2 F,2 E,2 | %245
w: ||||||||
w: ||||||||
w: ||||||||
w: ||||||||
 D,2!f! =B,2 B,2 | C2 C2 C2 | C2 FE DE | F4 E2 | D2 z2 z2 ||[K:F] z6 | z6 | z6 | z6 | z6 | z6 | %256
w: |||||||||||
w: |||||||||||
w: |||||||||||
w: |||||||||||
 z6 | z6 | z2 z2!mf! EE | F2 C2 C2 | C>C C2!p! CC | C4 C2 | C2 C2 C2 |!f! D4 C2 | =B,4 C2 | C6 | %266
w: ||||||||||
w: ||||||||||
w: ||||||||||
w: ||||||||||
 =B,2!f! G,2 G,2 ||[K:Bb] C3 G, E,2 | E,4 F,2 | G,6 | G,4 G,2 | G,4 G,2 | G,2 C2 C2 | C4 C2 | %274
w: ||||||||
w: ||||||||
w: ||||||||
w: ||||||||
 C4 C2 | C4 C2 | C>C B,2 F2 | F4 E2 | D2 z2 z2 | z6 |"^Solo" z2 z2!mf! DD | D2 C2 B,2 | B,2 C2 D2 | %283
w: |||||||||
w: |||||||||
w: ||||||in re-|mis- * si-|o- * nem|
w: |||||||||
 F2 E2 D2 | D2 C2 z2 |"^Tutti"!<(! A,4!<)! A,2 | B,4 D2 | C3 C CC | B,4 B,2 | B,4 B,2 | %290
w: |||||||
w: |||||||
w: pec- * ca-|to- rum.||||||
w: |||||||
 B,2 A,2 G,2 | A,2 z2!mf! D,2 | G,2 G,2 G,2 | D4 B,2 | A,4 B,2 | G,2 z2!mf! F,2 | B,2 B,2 B,2 | %297
w: |||||||
w: |||||||
w: ||vi- tam ven-|tu- ri|sae- cu-|li, *||
w: |||||||
 D4 B,2 | B,4 A,2 | B,2 z2 z2 |!f! B,6 | B,2 z2 z2 | A,6 | B,2 B,2 B,2 | B,6 | A,6 | B,2 z2 z2 | %307
w: ||||||||||
w: ||||||||||
w: ||||||||||
w: ||||||||||
 z6 |][K:Eb][M:4/4] z8 |!p! B,8 | B,8 |!mf! z8 | C2 =B,2 CF D2 | E4!f! E2 E2 | D3 D D4 | E4 D4 | %316
w: |||||||||
w: |||||||||
w: |||||||||
w: |||||||||
 E4 C2 C2 | =B,8 ||!ff! C4 C2 C2 | E4 C2 B,2 | A,6 B,2 | C4 E4 | D3 D D4 | E6 C2 | D4 =B,4 | %325
w: |||||||||
w: |||||||||
w: |||||||||
w: |||||||||
 C3 C _B,4 | B,4 =A,4 | B,4 z4 | z8 | z8 | z8 | z8 | z8 |!f! z8 | z8 | z8 | z4 z2!f! B,B, | %337
w: ||||||||||||
w: ||||||||||||
w: ||||||||||||
w: ||||||||||||
!>(! B,8!>)! | G,4 B,2 B,2 |!<(! [A,C]8!<)! | B,8 |][K:Ab][M:4/4] z8 | z8 | z8 | z8 | %345
w: ||||||||
w: ||||||||
w: ||||||||
w: ||||||||
!p! A,2 C2 E2 A,2 | B,4 C2 C2 | D2 DD B,2 CD | E4 A,2!p! C2 | E4"^-" z2 B,B, | B,4 B,2 z2 | %351
w: ||||||
w: ||||||
w: ||||Be- ne- *|di- ctus,|
w: ||||||
 C6"^-" C2 | E4 E2 A,2 | !^!D4 B,2 B,2 | A,4 C2 F2 | F4 E2 D2 | C4 z4 | z2!f! G,2 A,G,A,B, | %358
w: |||||||
w: |||||||
w: be- ne-|di- ctus *|||||Ho- san- na in ex-|
w: |||||||
 C4 E2 EE |!>(! E6 D2!>)! |!p! C4 A,2 A,2 |!<(! A,8!<)! |!>(!!>(! A,8!>)!!>)! |][K:Eb][M:4/4] z8 | %364
w: ||||||
w: ||||||
w: cel- sis, * *||||||
w: ||||||
 z8 | z8 | z8 | z8 | z4 E2 E2 | !^!E4 D4 | z2!f! E4 E2 | D4 C4 | C4 =B,4 | C4 z4 | z8 | z8 | z8 | %377
w: |||||||||||||
w: |||||||||||||
w: |||||||||||||
w: |||||||||||||
 z8 | z8 | z8 |!mf! z4 =B,2 B,2 | !^!C4 =B,4 | z2!f! C2 E2 E2 | D4 E2 B,2 | B,8 | B,4 z4 | z8 | %387
w: ||||||||||
w: ||||||||||
w: ||||||||||
w: ||||||||||
!f! G,4 A,4 | G,4 C,2 C,2 | !^!F,4 E,2 E,2 | !^!A,4 G,4 | C8 | B,4 z4 || z8 | z8 | z8 |!mf! z8 | %397
w: ||||||||||
w: ||||||||||
w: ||||||||||
w: ||||||||||
"^Solo" B,4 D4 | F4 E2 D2 |!>(! C8!>)! | B,4 z4 |!mf!"^Tutti"!<(! B,4 B,4!<)! | C6 B,2 | B,6 A,2 | %404
w: |||||||
w: |||||||
w: do- na|no- * bis|pa-|cem,||||
w: |||||||
 G,4!p! G,2 G,2 | G,4 A,4 |!>(! F,8!>)! | G,4!p! B,2 B,2 |!<(! B,8!<)! |!>(! G,4!>)! z4 | z8 |] %411
w: |||||||
w: |||||||
w: |||||||
w: |||||||
V:4
 x8 | x8 | x8 | x8 | x8 | x8 | x8 | x8 | x8 | x8 | E,4 F,4 | G,4 x2 G,2 | A,2 G,2 F,2 E,2 | x8 | %14
w: ||||||||||||||
w: ||||||||||||||
w: ||||||||||||||
w: ||||||||||||||
 E,4 C,4 | x8 | !fermata!C,8 || x8 | x8 | C,4 E,2 E,2 | !^!F,2 G,2 A,4 | F,4 B,2 B,,2 | %22
w: ||||||||
w: ||||||||
w: ||||||||
w: ||||||||
 E,4 E,2 D,2 | C,8 | B,,4 B,,4 | E,8 | !fermata!B,,8 || E,4 F,2 F,2 | G,4 A,4 | A,4 G,2 z2 | z8 | %31
w: |||||||||
w: |||||||||
w: |||||||||
w: |||||Ky- * ri-|e e-|lei- son,||
 z8 | z4 !^!C4 | A,3 A,, A,,2 A,,2 | B,,6 =B,,2 | C,4 !^!G,,4 | A,,2 A,,2 B,,2 B,,2 | B,,8 | %38
w: |||||||
w: |||||||
w: |||||||
w: ||* ri- e *|||||
 [E,,E,]4 E,4 | A,,8 | !fermata![E,,E,]8 |][M:4/4] x8 | x8 | x8 | x8 | x8 | x8 | x8 | x8 | x8 | %50
w: ||||||||||||
w: ||||||||||||
w: ||||||||||||
w: ||||||||||||
 E,4 G,4 | B,4 C2 C2 | B,4 z4 | x8 | z4 E,2 E,2 | G,4 A,2 A,2 | G,2 z2 z4 | z8 | z2 C2 C2 B,2 | %59
w: |||||||||
w: |||||||||
w: |||||||||
w: |||||||||
 =A,4 B,2 D,2 | F,6 F,2 | !fermata![B,,F,]8 | x8 | x8 | x8 | x8 | x8 | x8 | x8 | x8 | %70
w: |||||||||||
w: |||||||||||
w: |||||||||||
w: |||||||||||
 x2 G,2 =A,2 =B,B, | C4 C4 | x2 C4 B,2 | A,4 G,4 | F,4 B,4 | E,4 E,2 E,2 | B,,6 B,2 | B,4 x4 | x8 | %79
w: |||||||||
w: |||||||||
w: |||||||||
w: |||||||||
 x8 | x8 | x8 | B,4 B,4 | E,4 E,4 | F,8 | B,,4 x4 | B,4 B,2 B,2 | B,4 B,4 | C4 A,4 | G,4 G,4 | %90
w: |||||||||||
w: |||||||||||
w: |||||||||||
w: |||||||||||
 C,3 E, E,4 | F,4 F,2 F,2 | x8 | !fermata!C,8 ||[K:Ab] x8 | x8 | x8 | x8 | x8 | x4 A,2 A,2 | %100
w: ||||||||||
w: ||||||||||
w: ||||||||||
w: ||||||||||
 D,4 F,4 | A,8 | [D,A,]4 x4 | x8 | x8 | x8 | x8 | x8 | x4 F,4 | B,,3 B, B,4 | A,2 A,2 A,2 A,2 | %111
w: |||||||||||
w: |||||||||||
w: |||||||||||
w: |||||||||||
 F,4 F,4 | x8 | C,4 C4 | E4 C2 B,2 | A,4 F,2 C2 | =B,4 G,4 | x2 G,,4 G,,2 | C,4 C,4 | A,,8 | %120
w: |||||||||
w: |||||||||
w: |||||||||
w: |||||||||
 !fermata!B,,8 ||[K:Eb] E,3 E, E,2 G,2 | B,2 B,2 C4 | B,2 z2 z4 | z4 z2 E,2 | G,2 G,G, A,3 A, | %126
w: ||||||
w: ||||||
w: ||||||
w: ||||||
 G,2 C4 C2 | x8 | C2 C2 C2 B,2 | A,2 A,2 B,2 A,2 | G,2 G,G, B,2 B,2 | E,4 B,2 B,2 | E,4 F,4 | %133
w: |||||||
w: |||||||
w: |||||||
w: |||||||
 G,4 G,4 | A,4 B,2 =B,2 | C4 C4 | G,4 A,4 | B,8 | B,,8 | !fermata!E,8 |][K:Bb][M:3/4] B,4 B,2 | %141
w: ||||||||
w: ||||||||
w: ||||||||
w: ||||||||
 B,2 F,2 B,,2 | E,4 B,,2 | F,4 F,2 | D,2 E,2 F,2 | G,2 A,2 B,2 | C6 | G,2 G,2 G,2 | C,3 C, F,2 | %149
w: ||||||||
w: ||||||||
w: ||||||||
w: ||||||||
 B,,>B,, B,,2 x2 | G,G, A,2 B,2 | D4 D,2 | G,2 x2 x2 | z6 | z6 | z6 | z6 | z6 | z6 | z2 B,2 A,2 | %160
w: |||||||||||
w: |||||||||||
w: |et * * *||||||||||
w: |||||||||||
 G,4 A,2 | ^F,2 D,2 D,2 | G,2 A,2 B,2 | C2 D2 E2 | E2 D2 C2 | B,2 C2 D2 | F,4 F,2 | B,,4 x2 | %168
w: ||||||||
w: ||||||||
w: ||||||||
w: ||||||||
 B,2 B,2 B,2 | E,2 B,2 x2 | G,2 G,2 G,2 | C,>C, G,2 x2 | D4 C2 | B,A, G,2 G,2 | C,2 C2 B,2 | F,6 | %176
w: ||||||||
w: ||||||||
w: ||||||||
w: ||||||||
 B,,2 x2 x2 ||[K:Eb] x6 | x6 | x6 | x6 | x6 | x6 | x6 | x6 | x6 | x6 | x4 G,2 | C4 E,E, | %189
w: |||||||||||||
w: |||||||||||||
w: |||||||||||||
w: |||||||||||||
 F,G, A,2 B,2 | C4 C2 | =B,>G, G,2 C,E, | G,2 G,2 z2 | z6 | z6 | z4 B,,2 | G,,2 =A,,2 B,,C, | D,6 | %198
w: |||||||||
w: |||||||||
w: |||||||||
w: |||||||||
 !fermata![G,,D,]6 ||[K:Bb][M:4/4] x8 | x8 | x8 | x8 | x8 | x8 | x8 | x8 | x8 | x8 | %209
w: |||||||||||
w: |||||||||||
w: |||||||||||
w: |||||||||||
 x2 G,3 A, B,G, | E4 B,2 G,2 | C3 C C2 C2 | F,6 G,_A, | G,4 x2 E,2 | G,3 G, G,2 G,2 | %215
w: ||||||
w: ||||||
w: ||||||
w: ||||||
 C,3 D,!>(! E,2!>)! F,2 | G,4 G,4 | C4 G,4 | x2 G,6 | _A,4 G,4 | x2 C,4 D,2 | E,8 | D,8 | C,8 || %224
w: |||||||||
w: |||||||||
w: |||||||||
w: |||||||||
[K:Eb][M:3/4] C,2 D,2 E,2 | F,4 G,2 | E,2 D,2 C,2 | A,2 A,2 G,2 | F,2 F,2 F,2 | F,6 | B,2 B,2 B,2 | %231
w: |||||||
w: |||||||
w: Et re- sur-|re- xit||||||
w: |||||||
 E,2 F,2 G,2 | A,6 | E,2 B,2 B,B, | B,2 G,2 E,2 | B,6 | B,4 B,2 | G,3 G, G,G, | D4 =B,2 | G,4 G,2 | %240
w: |||||||||
w: |||||||||
w: |||||||||
w: |||||||||
 C,>C C2 B,B, | E,6 | E,4 E,2- | E,2 D,2 C,2 | G,,4 G,,2 | G,,2 G,2 G,2 | C,2 D,2 E,2 | F,4 F,2 | %248
w: ||||||||
w: ||||||||
w: ||||||||
w: ||||||||
 F,6 | B,,2 x2 x2 ||[K:F] x6 | x6 | x6 | x6 | x6 | x6 | x6 | x6 | x4 CC | F,2 F,2 F,2 | %260
w: ||||||||||||
w: ||||||||||||
w: ||||||||||||
w: ||||||||||||
 C,>C, C,2 E,E, | F,4 F,2 | C,2 C,2 C,2 | =B,,4 C,2 | F,4 E,2 | A,6 | G,2 G,2 G,2 || %267
w: |||||||
w: |||||||
w: |||||||
w: |||||||
[K:Bb] C3 G, E,2 | E,4 F,2 | G,6 | G,4 G,2 | C,4 C,2 | C,2 C,2 C,2 | F,=E,F,G, _A,B, | C4 C,2 | %275
w: ||||||||
w: ||||||||
w: ||||||||
w: ||||||||
 C,2 D,2 E,2 | F,>F, B,,2 D,2 | F,4 F,2 | B,2 x2 x2 | x6 | x4 B,B, | B,2 A,2 G,2 | G,2 A,2 B,2 | %283
w: ||||||||
w: ||||||||
w: ||||||||
w: ||||||||
 D2 C2 B,2 | B,2 A,2 x2 | F,4 F,2 | F,4 F,2 | F,3 F, ^F,F, | G,4 G,2 | E,4 E,2 | E,6 | D,2 x2 z2 | %292
w: |||||||||
w: |||||||||
w: |||||||||
w: |||||||||
 z6 | z6 | z6 | z4 F,2 | B,,2 B,,2 B,,2 | B,,4 D,2 | E,2 F,2 F,2 | G,2 x2 x2 | E,6 | B,,2 x2 x2 | %302
w: ||||||||||
w: ||||||||||
w: ||||||||||
w: ||||||||||
 F,4 ^F,2 | G,2 G,2 E,2 | F,6- | F,6 | [B,,F,]2 x2 x2 | x6 |][K:Eb][M:4/4] x8 | E,2 F,2 G,A, B,2 | %310
w: ||||||||
w: ||||||||
w: ||||||||
w: ||||||||
 E,8 | x8 | C,2 D,2 E,F, G,2 | C,4 C,2 C2 | B,3 B, B,4 | E,4 B,2 =B,2 | C6 C,2 | !fermata!G,8 || %318
w: ||||||||
w: ||||||||
w: ||||||||
w: ||||||||
 C4 C2 C2 | E4 C2 B,2 | A,6 B,2 | C4 C4 | G,3 G, G,4 | C6 A,2 | G,4 G,4 | C,3 C, D,4 | E,4 F,4 | %327
w: |||||||||
w: |||||||||
w: |||||||||
w: |||||||||
 !fermata![B,,F,]4 x4 | x8 | x8 | x8 | x8 | x8 | z4 z2 B,2 | C4 F,4 | z2 B,4 A,2 | %336
w: |||||||||
w: |||||||||
w: |||||||||
w: |||||||||
 G,2 F,2 E,2 E,E, | B,,8 | E,4 G,2 G,2 | x8 | !fermata!E,8 |][K:Ab][M:4/4] x8 | x8 | x8 | x8 | z8 | %346
w: ||||||||||
w: ||||||||||
w: ||||||||||
w: ||||||||||
 z8 | z8 | z8 | E,2 G,2 B,2 E,2 | F,4 G,2 x2 | A,6 F,2 | E,4 A,2 A,2 | !^!D,4 E,2 E,2 | %354
w: ||||||||
w: ||||||||
w: ||||||||
w: ||||||||
 F,4 F,2 F,2 | B,,4 E,2 E,2 | A,4 x4 | x2 E,2 F,E,F,G, | A,4 A,2 A,,C, | E,8 | A,,4 A,,2 A,,2 | %361
w: |||||||
w: |||||||
w: |||||||
w: |||||||
 D,8 | !fermata!A,,8 |][K:Eb][M:4/4] x8 | x8 | x8 | x8 | x8 | z8 | z8 | x2 C4 C2 | =B,4 C4 | G,8 | %373
w: ||||||||||||
w: ||||||||||||
w: ||||||||||||
w: ||||||||||||
 [C,G,]4 x4 | x8 | x8 | x8 | x8 | x8 | x8 | z8 | z8 | x2 C4 C2 | B,4 G,2 E,2 | B,,8 | E,4 x4 | x8 | %387
w: ||||||||||||||
w: ||||||||||||||
w: ||||||||||||||
w: ||||||||||||||
 G,4 A,4 | G,4 C,2 C,2 | !^!F,4 E,2 E,2 | !^!A,4 G,4 | C8 | B,4 x4 || x8 | x8 | x8 | x8 | z8 | z8 | %399
w: ||||||||||||
w: ||||||||||||
w: ||||||||||||
w: ||||||||||||
 z8 | z8 | E,4 G,4 | A,6 E,2 | B,,8 | =B,,4 B,,2 B,,2 | C,4 A,,4 | B,,8 | E,4 G,2 B,2 | E,8 | %409
w: ||||||||||
w: ||||||||||
w: ||||||||||
w: ||||||||||
 E,4 x4 | x8 |] %411
w: ||
w: ||
w: ||
w: ||
V:5
"^voll"!p!"^Andante sostenuto" E4 F4 | G4 B4 | A2 G2 F2 E2 |"^Cor." F8 | E2 G2 F2 E2 | %5
w: |||||
!<(! B4 c4!<)! | d6 f2 | e2 d2 c2 B2- | B4!>(! =A4!>)! | B2 c2!<(! B2!<)!"^voll" _A2 |!f! G4 A4 | %11
w: ||||||
 B2 B2 G2 B2 | c2 B2 A2 G2 |!>(! F8!>)! | G4 z2!p! E2 | D8 |!pp! !fermata!E8 ||"^Viol."!pp! G8 | %18
w: |||||||
 A4 G4 | e4 c4 | d4 c4 |!f! f4 d4 | e2 d2 c2 B2- | B4 =A4 | B4 z4 | z8 | z8 ||"^Viol.II" z8 | %28
w: ||||||||||
"^voll" B4 c4 | d4 e4 | [Bf]8 | g4 g4- | g3 e e2 e2- | e3 c c2 c2 | B6 A2 | G4 B4- | B2 A4 G2 | %37
w: |||||||||
 F8 | E4 z4 | z8 | z8 |][M:4/4]!pp!"^Moderato""^Organo obligat" G8 | [FB]8 |!<(! c8!<)! | [=Bd]8 | %45
w: ||||||||
 [ce]6 [df]2 | [B-e-g]4 [Be]4 | [ce]3 [Bd] A2 G2 |!>(! B8-!>)! | !fermata![GB]8 |!f! G8- | %51
w: ||||||
"^kräftige Registrirung" G4 A4 | G4"^voll" g4 | f8 | g4 E4- | E4 F4 | E2"^Viol." G4 c2- | c4 =B4 | %58
w: ||||||Cor. *|
 c2"^voll"!f! e6- | e2 f2 d4 | c8 | !fermata![DB]8 |!p! G4 B4 | e4 c4 | B4 G4 | F8 | G4 z4 | %67
w: |||||||||
 g4 d4 | e3 d c4- | c4 f4 | [=Bd]2 z2 z4 |"^Viol."!f! c4 c4- | c2 c4 c2 | c8 | A4 F4 | G4 G2 G2 | %76
w: ||||||||Cor. * *|
!<(! F6-!<)! F2- | F4 B4- | B8- | B8 | c8 |"^voll" d8 | z8 | z8 | z8 |!f! (B8- | B8 | B8) | e4 f4 | %89
w: |||||||||||||
 g4 [=Bd]4 | [ce]2 z2 z4 | z8 | z8 | z8 ||[K:Ab]"^Viol."!pp!"^Adagio" c2 a2 f3 g | [fa]8- | %96
w: |||||||
 [fa]8- | [fa]8 | a4 _g4 | e4 z4 | z8 | z8 |"^Viol."!pp! a2 f2 d3 e | [df]8- | [df]8- | [df]8 | %106
w: ||||||||||
 [ce]8 | [DAdf]8 | [=Af]4"^voll"!mf! c4 | [Fd]8 |!<(! e8!<)! | f4 c4- | c4 =B4 | c4!f! c4- | %114
w: ||||||||
 c6 B2 | [CFA]8 |"^voll" [=B,=DG]8- | [B,DG]2 z2 z4 | z8 | z8 | z8 || %121
w: |||||||
[K:Eb]!f!"^Tempo I""^Organo obligat." G8- | G4 A4 | G2"^voll" g6 | f4 g2 E2- | E4 F4 | E2 z2 z4 | %127
w: ||||||
 z8 | z2"^voll" e2 e4- | e2 f2 d4 | e4 f4 | g4 f2 z2 |"^accelerando" z8 | z8 | z8 | z4"^voll" G4 | %136
w: |||||||||
"^pesante" B6 A2 | G8 | F8 | !fermata!E8 |][K:Bb][M:3/4]"^voll""^Moderato" B6- | B2 [Ac]2 [B-d]2 | %142
w: ||||||
 e4 d2 | c4 c2 | d4 c2 | B2 A2 G2 | G4 A2 | B2 B4 | e4 c2 | d4 d2- | d2 c2 B2 | A6 | G2 G2 A2 | %153
w: |||||||||||
 B4 c2 | d6 | e6 | d2"^voll" f2 d2 | B2 e2 d2 | c6 | d2"^Viol." B2 A2 | G4 A2 | ^F2 D2 D2 | %162
w: |||||||||
 G2 A2 B2 | c2 d2 e2 | c2 d2 e2 | f2 e2"^voll" d2 | c6 | B4 z2 |"^voll"!f! B4 f2 | g2 f2 d2 | %170
w: ||||||||
 B4 d2 | e2 d2 z2 |"^Viol." d4 c2 | BA G2 G2- | G2 z2 z2 | z6 |"^voll" B4 F^F ||[K:Eb] G2 z2 z2 | %178
w: ||||||||
"^Viol." F2 E2 z2 | EcBAGF | E2 D2 B2- |"^voll"!<(! B2 c2 d2!<)! | e2 G4- |"^Cor." G2 =A2 =B2 | %184
w: ||||||
 c2 c2 B2 | [FA]2 [EG]2 F2 | E2 D2 D2 | C4 G2 | cd e2 c2 | f6 | e4"^voll" e2 | g>d d2 e2 | %192
w: ||||||||
 e2 d2!p! G2 |"^Viol." e2 d2 c2 | c6 | d4 [Bd]2- | [Bd]2 [=Ac]2 [GB]2 |"^Cor." =A6 | !fermata!G6 || %199
w: |||||||
[K:Bb][M:4/4]"^Viol."!p!"^Adagio" c4 B2 c2 | B3 A G2 z2 | B3 A G2 B2 | c8 | B3 A G2 F2 | E4 G4 | %205
w: ||||||
 F6 G2 | F4 G4 | F6!>(! E2 | D6!>)! z2 |"^voll"!f! G8- | G8 | _A8 | F8 | G2 G4 G2 | %214
w: |||||||||
!<(! G4!<)! =B2 d2 | e6 dc | =B4 z4 | z8 |!p! z8 |!f! c8- | c2 z2 z4 | z4 E4 | D8 | !fermata!C8 || %224
w: ||||||||||
[K:Eb][M:3/4]"^Tempo I" z6 | z6 |"^Viol." z6 | z4 G2 | A4 c2 | f6 | d2 z2 z2 | e6- | %232
w: ||||||||
 [ce]2 [Bd]2 [Ac]2 | [GB]2 z2 z2 |"^voll" G6- | G2 F2 E2 | F4 z2 |"^Viol." [=B,DG]6- | [B,DG]6- | %239
w: |||||||
 [B,DG]2 [DG=B]2 [G-Bd]2 | [ce]4"^voll" [df]2 | [eg]6 | e4 z2 | z6 | z6 | z2"^voll"!f! d2 d2 | %246
w: |||||||
 e2 d2 c2 | c4 d2 | c6 | B2-"^Viol." B2 =AG ||[K:F] F2 A2 c2 |!p! d4 c2 | c6- | c2 B2 A2 | %254
w: ||||||||
 A2 G2 z2 |"^Cor." G6- | G4 c2 | d4 ef | g2 e2!mf! c2 | [_A-c]2 A2 A2- | A>G G2!p! c2 | %261
w: |||||||
 c2 _A2 A2- | A2 G2 G2- | G2 f2 e2- | e2 d2 c2- | c=B c2 d2- | d2 z2 z2 ||[K:Bb]"^voll" E6- | E6- | %269
w: ||||||||
 E2 D2 C2 | D4 G2 | E4 F2 | G4"^voll" G2 | _A6 | G4 G2 | e2 d2 c2 |"^voll" c2 d2 d2 | c6 | %278
w: |||||||||
 B2 z2"^Viol."!p! d2 | d>c B2 cd | e2 d2 [Bd]2- | [Bd]2 [Ac]2 [GB]2- | [GB]2 [Ac]2 [Bd]2 | %283
w: |||||
"^Cor." [df]2 [ce]2 [Bd]2 | [Bd]2 [Ac]2 z2 | c6 | d4 B2 | A6 | B6 | e4 d2 | ^c6 | d2 D2 z2 | G6 | %293
w: ||||||||||
 A4 B2 | A4 B2 | G4!mf! F2 |"^voll" d6 | f4 d2 | c4 d2 | B2 B2 B2 |"^voll"!f! e6 | d2 fdcB | c6 | %303
w: ||||||||||
 B2 B2 e2 | d6 | c6 | B2 B2 B2 | B2 B,2 z2 |][K:Eb][M:4/4]"^Viol."!p!"^Andante" E2 F2 GA B2 | %309
w: ||||||
 B2 A2 G2 F2 |"^voll" G8 | z8 | e2 d2 cd"^voll" =B2 | c4 z4 | z4"^voll" z!f! _Bdf | g4 f4 | e8 | %317
w: ||||||||
 !fermata!d8 ||"^Viol."!ff!"^Allegretto" [EGc]8 | c6 [=EB]2 |"^voll" [FA]8 | [_EG]4 z4 | z8 | %323
w: ||||||
"^voll" c8 | =B4 z4 | z8 |"^Cor." z8 |"^Viol. II"!f! z8 | c4 F4 | z8 | z4 z2"^Viol.  I" e2 | %331
w: ||||||||
 g4 c4 | z2 f4 e2 | d2 c2 B2"^voll" A2 | G4 A4 | F6 F2 | G2 A2 B2 G2 | F8 | E4 z4 | E2 A4- c2 | %340
w: |||||||||
 !fermata!B8 |][K:Ab][M:4/4]"^Viol."!p!"^Andante sostenuto" A2 c2 e2 A2 | B4 c4 | B2 e3 =d e2- | %344
w: ||||
 e2 =dc =B4 | c4 _B2 c2 | d4 c2 B2 | A4 d2 c2 | B4 c4 | B4 z4 | z8 | A2 c2 e2 A2 | B4 c2 A2 | %353
w: |||||||||
 f4 e2 d2 | c8 | d4 B4 | A2 E2!<(! CE!<)!Ac |!f! e8- | e4 c4 | B8 | A4 z4 | z8 | z8 |] %363
w: ||||||||||
[K:Eb][M:4/4]"^Org. obligat""^Viol.""^Larghetto" G4 A4 | G4 C2 z2 | z2 F2 E2 z2 | z2 A2 G2 G2 | %367
w: ||||
"^voll" F8 | E4 z4 | z4 z2"^voll"!f! B2 | c2 c4 c2 | d4 e4 | d8 | c2 c4"^voll" B2- | B2 AG F2 B2- | %375
w: ||||||||
 B4"^Viol." c4 | B4 E2 z2 | z2 A2 G2 z2 | z2 [Ac]2 [GB]2 [G-B]2 | A8 | G4 z4 | z4 z2"^voll"!f! d2 | %382
w: |||||||
 e2 e4 f2 | f4 e4- | e4 d4 | e2 G2 F2 E2 | E4 D2 G2- |"^voll" G4 A4 | G4 C2 z2 | z2 F2 E2 z2 | %390
w: ||||||||
 z2 (A2 G2) G2- | G4 F2 E2 | D4!p! B2 ^F2 || G4"^Viol. Cor." B4- | B4 A2 G2 | F8 | G4 E2 G2 | B8 | %398
w: ||||||||
 =A6 B2- |!>(! B4 =A4!>)! | B2"^voll"!<(! B4!<)! F2 | G4 z4 | z8 | z8 | z4"^voll" D4 | E4 F4 | D8 | %407
w: |||||||||
 E4 z4 | z8 | z4!pp!"^Viol. Cor." E4 | E4 z4 |] %411
w: ||||
V:6
 E6 D2 | E8- | C2 B,2 D2 C2- | C4 D4 | B,2 z2 z4 | B6 =A2 | B2 c2 B2 =A2 | G6 F2 | E8 | D8 | E8- | %11
 E4 z2 E2- | E8- | E4 D4 | E4 x2 C2- | C4 =B,4 | C8 || E8 | F4 E4 | G8 | A2 GF E4 | A4 F4 | G6 F2 | %23
 E8 | D4 x4 | x8 | x8 || z2 E4 D2 | E8 | F4 E2 G2 | x8 | B4 G4 | E3 G G4 | A6 E2- | E4 D4 | %35
 E4 _D4 | C4 =D2 E2- | E4 D4 | B,4 x4 | x8 | x8 |][M:4/4] E8- | E4 D4 | [CEG-]8 | G8- | %45
 [CG]6 [_B,_B]2 | E4- E4- | E8 | F8 | x8 | E8- | E8- | E4 B4- | B8- | B4 B,4 | C8- | C2 E4 G2 | %57
 F8 | E2 G6 | F8 | F6 E2 | x8 | G4 F4 | G4 A4 | G4 E4- | E2 DC D4 | E4 x4 | G8- | G8 | %69
 [FA]4 [Ac]4 | G2 x2 x4 | [EG]4 [EG]4- | [EG]2 C2 D2 E2 | F4 E4- | E4 D4 | E4 E2 E2 | D6- D2- | %77
 D4 B4- | B4 _A4 | _G8- | G8 | F8 | x8 | x8 | x8 | x8 | B4 A4 | G4 F4 | E4 c4 | =B4 G4- | %90
 G2 x2 x4 | x8 | x8 | x8 ||[K:Ab] [F-Ac]4 [F-Bd]4 | [Fc]8- | [Fc]8- | [F-c]8 | [FA]4 [EB]4 | %99
 [Ac]4 x4 | x8 | x8 | F4 _G4 | A8- | A8- | A8- | A8- | x8 | F4 F4- | x8 | A8- | A8 | [=DG-]8 | %113
 [EG]4 [E-G]4 | [EA]4 [C-E]2 [C-=E]2 | x8 | x8 | x8 | x8 | x8 | x8 ||[K:Eb] E8- | E8- | E2 B6- | %124
 B6 B,2 | C8- | C2 x2 x4 | x8 | x2 G2 G4 | F8 | B8- | B6 x2 | x8 | x8 | x8 | x4 E4- | E8 | E8 | %138
 D8 | B,8 |][K:Bb][M:3/4] [DF]6- | [DF]2 F4 | G4 F2- | [FA]4 F2- | F4 E2 | D4 G2 | G6- | G2 G4- | %148
 G4 F2- | F4 B2- | B2 A2 G2- | G2 ^F=E F2 | G2 z2 z2 | G6- | G6- | G2 cB A2 | B6 | G2 A2 B2- | %158
 B4 A2 | B2 B2 A2 | G4 A2 | ^F2 D2 D2 | D4 [EG-]2 | G6 | A2 B2 c2 | d2 c2 B2- | B2 AG A2 | F4 x2 | %168
 F4 B2- | B4 z2 | G6- | G4 x2 | D6- | D4 CD | E2 x2 x2 | x6 | D2 E2 x2 ||[K:Eb] E2 x2 x2 | %178
 D2 C2 x2 | C6 | B,4 z2 | F6 | E2- E4 | F6 | E2 C4- | C4- C2- | C4 =B,2 | C4 G2- | G6 | A6 | %190
 G4 G2- | G6- | G4 G2- | G6 | =A6 | B4 D2- | D6 | G4!>)!!>(! ^F2 | D6 ||[K:Bb][M:4/4] G8- | G6 x2 | %201
 F4 E2 F2- | F6 E2 | D2 F2 E2 D2 | C4 E4 | D8- | D4 E4 | C8 | x8 | D8 | E8- | E8- | E2 DC D4 | %213
 E2 G4 E2 | D4 G4- | G6 _A2 | G4 x4 | x8 | G6 F2 | E8- | E2 x2 x4 | x4 C4- | C4 =B,4 | x8 || %224
[K:Eb][M:3/4] x6 | x6 | C2 D2 E2 | F4 E2 | F4 A2- | A6 | F2 x2 x2 | E6- | E6- | E2 x2 x2 | E6- | %235
 E2 D2 C2 | D4 x2 | x6 | x6 | x6 | G4 _B2- | B6 | [GB]4 x2 | x6 | x6 | x2 G4- | G6 | =A4 B2- | %248
 B2 =AG A2 | F2 [DG]2 [C=E]2 ||[K:F] F2 z2 z2 | B4 A2 | A6- | A2 G2 F2 | F2 E2 x2 | D6 | E2 C2 G2 | %257
 =B4 cd | e2 c2 [EG]2 | F2 F4 | F>E E2 G2 | _A2 F4- | F2 E2 E2 | G6- | G6 | ^F6 | G2 x2 x2 || %267
[K:Bb] C6- | C6- | C2 =B,2 A,2 | =B,4 G2 | C4 D2 | E4 E2 | F6 | E4 E2 | G6 | A2 B2 B2- | B2 G2 A2 | %278
 F2 x2 B2 | B>A G2 AB | c2 B2 x2 | D6 | E4 F2- | F6- | F4 x2 | F6- | F6 | E6 | D6 | G6- | G6 | %291
 ^F2 D2 x2 | [B,D-]6 | D6 | E2 D4- | D4 F2- | F6- | F6 | G2 F4 | D2 B,2 B,2 | G6 | F2 F4 | E6 | %303
 D2 G4 | F6- | [EF]6 | [DF]2 [DF]2 [DF]2 | [DF]2 B,2 x2 |][K:Eb][M:4/4] z8 | G2 F2 E2 D2 | E8 | %311
 C2 D2 EF G2 | G4 GA G2- | G4 x4 | x4 x2 B2 | B6 A2 | G8- | G8 || x8 | [EA]4 C4- | C8 | C4 x4 | %322
 x8 | G6 F2 | G4 x4 | x8 | x8 | !fermata!z4 z2 B2 | x8 | z2 B4 _A2 | G2 F2 E2 z2 | z2 E2 A2 G2 | %332
 F3 E D2 C2 | B,2 C2 D2 D2 | E8- | E2 DC D4 | E2 F2 G2 E2- | E4 D4 | B,4 x4 | E6- [EA]2 | [EG]8 |] %341
[K:Ab][M:4/4] z8 | z8 | E2 G2 B2 E2 | F4 G2 F2 | E2 A2 G2 AG | F4 =E4 | F6 A2 | G4 A4 | G4 z2 G2 | %350
 =D4 E2 E2- | E6 F2 | G4 A2 A2- | A4 G4 | A8- | A4 G4 | E4 z2 A2 | E8- | E4 A4- | %359
 A2!>(! GF!>)! G4 | E4 x4 | x8 | x8 |][K:Eb][M:4/4] C8- | C2 =B,2 C2 x2 | x2 C4 x2 | %366
 x2 C2 B,2 E2- | E2 C2 D4 | B,4 x4 | x4 x2 F2 | [EG]2 G4 G2- | G8 | G2 D2 G2 F2 | E2 E2 F4 | %374
 G2 FE E2 D2 | E8- | E2 D2 E2 x2 | x2 C2 B,2 x2 | x2 E4 E2 | G4 F2 E2 | D4 x4 | x4 x2 G2- | %382
 G2 G4 =A2 | B6 G2 | F8 | G2 E2 D2 C2- | C6 =B,2 | C8- | C2 =B,2 C2 x2 | x2 D2 E2 x2 | %390
 x2 (D2 E2) z2 | C8 | B,4 z4 || E8 | E8- | E4 D4 | E4- E4 | F8 | F4 E2 D2 | C8 | D2 D2 E2 F2 | %401
 E4 x4 | x8 | x8 | x4 D4 | C8 | B,8- | B,4 x4 | x8 | x4 E4 | E4 x4 |] %411
V:7
"^Man." G,4!<)!!<(! B,4- | B,8 | x4 A,2 G,2 | A,8 | G,2 B,6 | D4 F4 | B,6 D2 | E6 D2 | C6 F,2 | %9
 B,3 _A, G,2"^P" F,2 | B,8- | B,4 z2 B,2 | A,2 B,6- | B,8- | B,4!p! z2 G,2- | G,8- | G,8 || C8- | %18
 C2 =B,2"^Man." C4 | C8- | C2 =B,2 C4 |"^P" C4 _B,4- | B,8 | C6 F,2- | F,4 z4 | z8 | z8 || %27
!f! E,4 F,4 | x4 C4 | B,4 B,2 E2- | E4 D4 | E4 E4 | C4 C4- | C3[I:staff -1] E E2[I:staff +1] A,2 | %34
!>(! F,8!>)! | E,4 E,4- | E,2 F,4 G,A, | B,6 A,2 | G,4 z4 | z8 | z8 |] %41
[M:4/4]"^Zart streichende   8' Register." z8 | z8 | z8 | z8 | z8 | z4 G,4 | A,8 | E2 DC D4 | %49
 !fermata!E8 |"^P" B,8- | B,4 C4 | B,4 E4- | E4 D4 | E4 G,4- | G,4 A,4 | G,2 C4 E2 | D8 | C2 C6- | %59
 C4 B,4- | B,2 =A,G, A,4 | B,8 | E4 D4 | C4 _A,4 | E,4 E,2 G,2 | B,8- | B,4 z4 | E4 =B,4 | %68
 C3 D E4 | F8 | z8 | [C,C]4 [C,C]4- | [C,C]2 C4- C2- | C8- | C4 B,4- | B,4 B,2 B,2 | B,6- B,2- | %77
 B,4 B,4- | B,8- | B,8- | B,4 =A,4 | B,8 | z8 | z8 | z8 | B,8- | B,8- | B,8 | C4 C4 | D4 x4 | %90
 C2 z2 z4 | z8 | z8 | z8 ||[K:Ab]"^dolce 8'" z8 | z8 | z8 | z8 | z8 | z8 | z8 | z8 | z8 | z8 | z8 | %105
 z8 | z8 | z8 | z4"^P" =A,4 | B,4 B,4 | C8- | C4 F4 | G,8 | C,4 C4 | A,6 G,2 | F,8 | G,8- | %117
 G,2 z2 z4 | z8 | z8 | z8 ||[K:Eb] B,8- | B,4 C4 | B,2 E6- | E2 D2 E2 G,2- | G,4 A,4 | G,2 z2 z4 | %127
 z8 | z2 C2 C4 | C4 B,4- | B,4 D4 | E4 D2 z2 | z8 | z8 | z8 | z4 C4 |"^pe sante" _D4 C4 | B,8 | %138
 [A,B,]8 | !fermata![E,G,]8 |][K:Bb][M:3/4]"^P"!mf! B,,6 | B,2 F,2 B,,2 | E,4 B,,2 | x4 A,2 | %144
 F,2 G,2 A,2 | B,2 C2 D2 | E6 | D2 D4 | C4 A,2 | B,4 z2 | B,2 C2 D2- | D6 | B,2 z2 z2 | G,4 A,2 | %154
 B,6 | C4 F2 | B,2 D2 B,2 | E2 C2 B,2 | E2 F2 F,2 | B,2 B,2 A,2 | G,4 A,2 | ^F,2 D,2 D,2 | %162
 B,2 A,2 G,2 | C6 |!<(! E2 D2!<)! C2 | D2 E2 F2- | F4 E2 | D4 z2 | D6 | E2 D2 z2 | D4 B,2 | %171
 C2 B,2 z2 | D,=E,^F,D,E,F, | G,A,B,G,A,=B, | C2 z2 z2 | z6 |!p! x4 B,2- ||[K:Eb] B,2 z2 z2 | %178
 A,2 G,2 z2 | E,2 =E,F,G,A, | G,2 F,2 z2 | D4 B,2- | B,6 | =B,2 =A,2 G,2- | G,2 E,2 =E,2 | %185
 F,2 G,2 A,2 | G,4 F,2 | [E,G,]4!f! G,2 | E2 C2 C2 | A,B, C2 D2 | E4 C2 | D>=B, B,2 C2 | %192
 C2 =B,2 G,2 | C2 D2 E2 | F2 ED C2 | B,4!p! x2 | G,,2 =A,,2 B,,C, | D2 CB, =A,2 | =B,6 || %199
[K:Bb][M:4/4]"^Man." E4 D2 E2 | D3 C D2 z2 | B,8- | B,2 A,G, A,4 | B,8 | G,6 A,2 | B,8- | B,8 | %207
 A,4 G,4- | A,6 z2 |"^P" B,8- | B,8 | C8 | B,8- | B,2 G,4 B,2 | =B,4 D2 B,2 | C6!>)!!>(! FE | %216
 D4 z4 | z8 | z2 =B,6 | C8 | =A,2 z2 z4 | z4!p! G,4- | G,6!>(! F,2!>)! | G,8 || %224
[K:Eb][M:3/4]!p! C,2 D,2 E,2 | F,4 G,2 |!mf! C6- | C6- | C6- | C6 | B,2 z2 z2 |!f! E,2 F,2 G,2 | %232
 A,6 | E,2 z2 z2 | B,6- | B,6- | B,4 z2 | G,6- | G,6- | G,2 G,F,E,D, | C,2 C2 B,2 | [B,E]6- | %242
 [B,E]4 z2 | z6 | z6 | z2 =B,2 B,2 | C6- | C4 B,2 | F4 E2 | D2 G,,2 C,2 ||[K:F]!mf! A,2 z2 z2 | %251
 B,A,B,D F2 | F6 | D,2 E,2 F,2 | C,2 C,2 z2 | =B,,6 | C,2 E,2 E,2 | G,3 F,E,D, | C,4 C2- | C4 C2- | %260
 C6- | C6- | C4 C2 |!f![I:staff -1] D4[I:staff +1] C2 | =B,4 C2- | C6 | =B,2 z2 z2 || %267
[K:Bb]!f! G,6 | _A,4 F,2 | G,6- | G,4 G,2- | G,6- | G,2 C2 C2- | C6- | C4- C2 | C6- | %276
 C2 B,2[I:staff -1] F2 |[I:staff +1] F4 E2 | D2 z2 z2 | G,6 |"^Man." C2 G2[I:staff -1] D2- | %281
[I:staff +1] ^F,4 G,2 | E,4 D,2 | A,,4 B,,2 | F,4 z2 |"^P"!<(! A,6!<)! | B,4 D2 | C6 | B,6- | %289
 B,6- | B,2 A,2 G,2 | A,2 D,2 z2 |!mf! G,,2 B,,D, G,2 | x4 G,2- | G,2 ^F,4 | B,4 F,2 | B,6 | %297
 D4 B,2- | B,4 A,2 | B,2 z2 z2 | B,6- | B,2 D4 | A,6 | B,2 B,4- | B,6 | A,6 | [F,B,]2 x2 x2 | %307
 B,,2 B,,2 z2 |][K:Eb][M:4/4] z8 |!p! B,8 | B,8 |!mf! C6 =B,2 | C2 =B,2 CF D2 | E4 z4 | z4 z2 D2 | %315
 E4 D4 | E4 C2 C2 | =B,8 || C8 | A,6 G,2 | F,8 | C,4 z4 | z8 | E6 C2 | D4 z4 | z8 | z8 | %327
 !fermata!z4 z4 | z8 | z8 | z8 | z8 | z8 | z4 z2"^P"!f! B,2 | C4 F,4 | z2 B,4 A,2 | z4 z2 B,2- | %337
!>(! B,8!>)! | G,4 z4 |!<(! C6 z2!<)! | !fermata!E,8 |][K:Ab][M:4/4] z8 | z8 | z8 | z8 | %345
 A,2 C2 E2 A,2 | B,4 C4 | D4 B,2 CD | E4 A,2 C2 | E4 z2 B,2 | B,6 z2 | C6 C2 | E6 A,2 | D4 B,4 | %354
 A,4 C2 F2- | F4 E2 D2 | C4 z4 | z2 G,2 A,G,A,B, | C4 E4- | E6 D2 | C4 z4 | z8 | z8 |] %363
[K:Eb][M:4/4]"^Man."!pp! E,4 F,4 |"^Zart    streichend" D,4 E,2 z2 | z2 A,2 G,2 z2 | z2 x4 B,2 | %367
!>(! B,6 A,2!>)! | G,4 z4 | z4 z2"^P" D2 | C2 E4 E2 |"^Tutti" D4 C4- | C4 =B,4 | C2 z2 _B,4- | %374
 B,6"^Man." B,2 | G,4 A,4 | F,4 G,2 z2 | z2 A,2 E,2 z2 | z2 A,,2 E,2 E,2 |!>(! C8!>)! | =B,4 z4 | %381
 z4 z2 =B,2 | C2 E4 E2 | D4 E2 B,2- | B,8- | B,2 G,2 A,2 =A,2 | G,6 =F,2 |!f! E,4 F,4- | %388
 F,4 E,2 z2 | z2 A,2 G,2 z2 | z2 B,4 z2 | A,6 G,2 |"^Man." F,4 B,4- || B,8 | C6 B,2- | B,8- | %396
 B,4 B,4 | D8 | C6 B,2 | G,4 F,4 | F,2"^P" B,6- | B,4 z4 | z8 | z8 | z4!p! G,4- | G,4 A,4 | %406
!>(! F,8!>)! | G,4 z4 | z8 | z4 [G,B,]4 | [G,B,]4 z4 |] %411
V:8
 E,4 B,,4 | E,4 G,,4 | A,,2 E,2 B,,2 C,2 | F,,4!>(! B,,4 | E,2!>)! E,2 D,2 C,2 | B,,4 z4 | z8 | %7
 z8 | x8 | x8 | E,4 F,4 | G,4 x2 G,2 | A,2 G,2 F,2 E,2 | B,,8 | E,4 C,4 | G,,8 | !fermata!C,8 || %17
 z8 | z8 | C,4 E,4 | F,2 G,2 A,4 | F,4 B,2 B,,2 | E,6 D,2 | C,8 | B,,4 x4 | x8 | x8 || x8 | %28
 G,4 A,4- | A,4 G,2 z2 | z8 | z8 | z4 C4 | A,3 A,, A,,4 | B,,6 =B,,2 | C,4 G,,4 | A,,4 B,,4- | %37
 B,,8 | E,4 x4 | x8 | x8 |][M:4/4] x8 | x8 | x8 | x8 | x8 | z8 | z8 | B,8 | z8 | E,8- | E,4 A,,4 | %52
 E,4 z4 | z8 | z4 E,4 | C,4 F,,4 | C,2 z2 z4 | x8 | z2 C4 B,2 | =A,4 B,2 D,2 | F,8 | %61
 !fermata![B,,F,]8 | z8 | z8 | z8 | z8 | E,4 x4 | z8 | z8 | z8 | x8 | x8 | x6 B,2 | A,4 G,4 | %74
 F,4 B,4 | E,4 E,2 E,2 | B,,6- B,,2- | B,,4 _A,4 | _G,4 F,4 | E,8- | E,8 | B,,8 | x8 | x8 | x8 | %85
 B,4 _A,4 | =G,4 F,4 | E,4 D,4 | C,4 A,4 | G,4 G,4 | C,2 x2 x4 | x8 | x8 | x8 ||[K:Ab] x8 | x8 | %96
 x8 | x8 | x8 | x8 | x8 | x8 | x8 | x8 | x8 | x8 | x8 | x8 | x4 F,4 | B,,4 B,4 | A,8 | F,8 | x8 | %113
 x8 | x8 | x8 | x8 | x8 | x8 | x8 | x8 ||[K:Eb] E,8- | E,4 A,,4 | E,2 z2 z4 | z4 z2 E,2 | %125
 C,4 F,,4 | C,2 x2 x4 | x8 | x2 C2 C2 B,2 | A,4 B,2 A,2 | G,4 B,4 | E,4 B,2 x2 | x8 | x8 | x8 | %135
 x4 C4 | G,4 A,4 | x8 | B,,8 | !fermata!E,,8 |][K:Bb][M:3/4] x6 | x6 | x6 | F,4 F,2 | D,2 E,2 F,2 | %145
 G,2 A,2 B,2 | C6 | G,2 G,4 | C,4 F,2 | B,,4 x2 | G,2 A,2 B,2 | D4 D,2 | G,2 x2 x2 | z6 | z6 | z6 | %156
 z6 | z6 | z6 | z2 B,2 A,2 | G,4 A,2 | ^F,2 D,2 D,2 | x6 | E,2 D,2 C,2 | x6 | B,2 C2 D2 | F,6 | %167
 B,,4 x2 | B,,6 | E,2 B,2 x2 | G,4- G,2 | C,2 G,2 x2 | x6 | x6 | x6 | x6 | B,,2 C,2 [D,B,]2 || %177
[K:Eb] E,2 x2 x2 | B,,2 C,2 x2 | A,,6 | B,,4 x2 | A,6 | G,2 E,4 | D,6 | C,2 x4 | x6 | G,4 G,,2 | %187
 C,4 x2 | C4 E,2 | F,G, A,2 B,2 | C4 C2 | =B,>G, G,2 C,E, | G,4 z2 | z6 | z6 | z4 B,,2 | x6 | D,6 | %198
 !fermata![G,,D,]6 ||[K:Bb][M:4/4] C4 G,2 C2 | G,3 A, B,2 x2 | D,4 E,2 D,2 | F,8 | %203
 G,2 D,2 E,2 B,,2 | C,8 | D,4 B,,2 G,,2 | B,,4 E,4 | F,4 C,4 | D,6 x2 | G,,8- | G,,6 E,2 | _A,,8 | %212
 B,,8 | E,2 z4 E,2 | G,8 | C,3 D, E,2 F,2 | G,4 x4 | x8 | x2 G,6 | _A,4 G,4 | ^F,2 x2 x4 | %221
 x4 E,,2 F,,2 | G,,8 | !fermata![C,E,]8 ||[K:Eb][M:3/4] x6 | x6 | E,2 D,2 C,2 | A,4 G,2 | F,4 F,2 | %229
 F,6 | x2 x2 x2 | x6 | x6 | x6 | E,6 | B,,6- | B,,4 x2 | [G,,D,]6- | [G,,D,]6- | [G,,D,]2 x4 | x6 | %241
 E,6- | E,6 | x6 | x6 | x2 G,2 G,2 | C,2 D,2 E,2 | F,6- | F,6 | B,,2 x4 ||[K:F] F,2 x2 x2 | x6 | %252
 x6 | x6 | x6 | x6 | x6 | x6 | x6 | F,4 F,2 | C,4 E,2 | F,6 | C,4 C,2 | =B,,4 C,2 | F,4 E,2 | A,6 | %266
 G,2 x2 x2 ||[K:Bb] C,6 | _A,,6 | G,,6- | G,,4 G,2 | C,6- | C,4 C,2 | F,=E,F,G, _A,B, | C4 C,2 | %275
 C,2 D,2 E,2 | F,2 B,,2 D,2 | F,6 | B,2 x2 x2 | z6 | z2 z2 G,2 | x6 | x6 | x6 | x6 | F,6- | F,6- | %287
 F,4 ^F,2 | G,6 | E,6- | E,6 | D,2 D,2 x2 | x6 | ^F,4 G,2 | C,2 D,4 | G,4 =F,2 | B,,6- | B,,4 D,2 | %298
 E,2 F,4 | G,2 x2 x2 | E,6 | B,,2 B,4 | F,4 ^F,2 | G,2 G,2 E,2 | F,6- | F,6 | B,,2 F,2 D,2 | x6 |] %308
[K:Eb][M:4/4] x8 | E,2 F,2 G,A, B,2 | E,8 | z8 | C,2 D,2 E,F, G,2 | C,4 x4 | x4 x2 _B,2 | %315
 E,4 B,2 =B,2 | C6 C,2 | !fermata!G,8 || x8 | x8 | x8 | x8 | x8 | C6 A,2 | G,4 x4 | x8 | x8 | x8 | %328
 x8 | x8 | x8 | x8 | x8 | x8 | x8 | x8 | G,2 F,2 E,2 E,2 | B,,8 | E,4 x4 | [A,,A,]8 | x8 |] %341
[K:Ab][M:4/4] x8 | x8 | x8 | x8 | z8 | z8 | z8 | z8 | E,2 G,2 B,2 E,2 | F,4 G,2 x2 | A,6 F,2 | %352
 E,4 A,2 A,2 | D,4 E,4 | F,8 | B,,4 E,4 | A,4 x4 | x2 E,2 F,E,F,G, | A,4 A,2 A,,C, | E,8 | %360
 A,,4 x4 | x8 | x8 |][K:Eb][M:4/4] C,4 F,,4 | G,,4 C,2 x2 | x2 F,2 C,2 x2 | x2 A,,2 E,2 E,2 | %367
 B,,8 | E,4 x4 | x4 x2 D2 | C2 C4 C2 | =B,4 C4 | G,8 | [C,G,]2 C,2 D,4 | E,2 F,G, B,2 B,,2 | %375
 E,4 A,,4 | B,,4 E,2 x2 | x8 | x8 | F,8 | G,4 x4 | x4 x2 G,2 | C,2 C4 C2 | B,4 G,2 E,2 | B,,8 | %385
 E,2 E,2 F,2 ^F,2 | G,4 G,,4 | C,4 F,,4 | G,,4 A,,2 x2 | x2 _B,,2 C,2 x2 | x2 F,2 G,2 x2 | A,,8 | %392
 B,,4 D,4 || E,4 G,4 | A,6 E,2 | B,,8 | E,4 G,2 E,2 | B,,8 | F,6 G,2 | E,4 F,4 | %400
 B,,2 B,,2 C,2 D,2 | E,4 x4 | x8 | x8 | x4 =B,,4 | C,4 A,,4 | B,,8 | E,4 x4 | x8 | x4 E,2 E,2 | %410
 [E,,E,]4 x4 |] %411
V:9
 x8 | x8 | E4 x4 | x8 | x8 | x8 | x8 | x8 | x8 | x8 | x8 | x8 | x8 | x8 | x8 | x8 | x8 || x8 | x8 | %19
 x8 | x8 | x8 | x8 | x8 | x8 | x8 | x8 || x8 | x8 | x8 | x8 | x8 | x8 | x8 | x8 | x8 | x8 | x8 | %38
 x8 | x8 | x8 |][M:4/4] x8 | x8 | x8 | x8 | x8 | x8 | x4 c4 | x8 | x8 | x8 | x8 | x8 | x8 | x8 | %55
 x8 | x8 | x8 | x8 | x8 | x8 | x8 | x8 | x8 | x8 | x8 | x8 | x8 | x8 | x8 | x8 | x8 | x8 | x8 | %74
 x8 | x8 | x8 | x8 | x8 | x8 | x8 | x8 | x8 | x8 | x8 | x8 | x8 | x8 | x8 | x8 | x8 | x8 | x8 | %93
 x8 ||[K:Ab] x8 | x8 | x8 | x8 | d8 | x8 | x8 | x8 | A4 B4 | x8 | x8 | x8 | x8 | x8 | x8 | x8 | %110
 x8 | x8 | x8 | x8 | x8 | x8 | x8 | x8 | x8 | x8 | x8 ||[K:Eb] x8 | x8 | x8 | x8 | x8 | x8 | x8 | %128
 x8 | x8 | x8 | x8 | x8 | x8 | x8 | x8 | x8 | x8 | x8 | x8 |][K:Bb][M:3/4] x6 | x6 | B6 | x6 | x6 | %145
 x6 | x6 | x6 | x6 | x6 | x6 | x6 | x6 | x6 | x6 | x6 | x6 | x6 | x6 | x6 | x6 | x6 | x6 | x6 | %164
 x6 | x6 | x6 | x6 | x6 | x6 | x6 | x6 | x6 | x6 | x6 | x6 | x6 ||[K:Eb] x6 | x6 | x6 | x6 | x6 | %182
 x6 | x6 | x2 G4 | x6 | x6 | x6 | x6 | x6 | x6 | x6 | x6 | x6 | x6 | x6 | x6 | x6 | x6 || %199
[K:Bb][M:4/4] x8 | x8 | x8 | x8 | x8 | x8 | x8 | x8 | x8 | x8 | x8 | x8 | x8 | x8 | x8 | x8 | x8 | %216
 x8 | x8 | x8 | x8 | x8 | x8 | x8 | x8 ||[K:Eb][M:3/4] x6 | x6 | x6 | x6 | x6 | x6 | x6 | %231
 G2 A2 B2 | x6 | x6 | x6 | x6 | x6 | x6 | x6 | x6 | x6 | x6 | x6 | x6 | x6 | x6 | x6 | x6 | x6 | %249
 x6 ||[K:F] x6 | x6 | x6 | x6 | x6 | x6 | x6 | x6 | x6 | x6 | x6 | x6 | x6 | x6 | x6 | x6 | x6 || %267
[K:Bb] x6 | x6 | x6 | x6 | x6 | x6 | x6 | x6 | x6 | x6 | x6 | x6 | x6 | x6 | x6 | x6 | x6 | x6 | %285
 x6 | x6 | x6 | x6 | x6 | x6 | x6 | x6 | x6 | x6 | x6 | x6 | x6 | x6 | x6 | x6 | x6 | x6 | x6 | %304
 x6 | x6 | x6 | x6 |][K:Eb][M:4/4] x8 | x8 | x8 | x8 | x8 | x8 | x8 | x8 | x8 | x8 || x8 | %319
 x4 E2 x2 | x8 | x8 | x8 | x8 | x8 | x8 | x8 | x8 | x8 | x8 | x8 | x8 | x8 | x8 | x8 | x8 | x8 | %337
 x8 | x8 | x8 | x8 |][K:Ab][M:4/4] x8 | x8 | x8 | x8 | x8 | x8 | x8 | x8 | x8 | x8 | x8 | x8 | x8 | %354
 x8 | x8 | x8 | x8 | x8 | x8 | x8 | x8 | x8 |][K:Eb][M:4/4] x8 | x8 | x8 | x2 E4 x2 | x8 | x8 | %369
 x8 | x8 | x8 | x8 | x8 | x8 | x8 | x8 | z2 E4 z2 | x8 | x8 | x8 | x8 | x8 | x8 | x8 | x8 | x8 | %387
 x8 | x8 | x8 | x8 | x8 | x8 || x8 | x8 | x8 | x8 | x8 | x8 | x8 | x8 | x8 | x8 | x8 | x8 | x8 | %406
 x8 | x8 | x8 | x8 | x8 |] %411
V:10
 x8 | x8 | x8 | x8 | x8 | x8 | x8 | x8 | x8 | x8 | x8 | x8 | x8 | x8 | x8 | x8 | x8 || x8 | x8 | %19
 x8 | x8 | x8 | x8 | x8 | x8 | x8 | x8 || x8 | x8 | x8 | x8 | x8 | x8 | x8 | x8 | x8 | x8 | x8 | %38
 x8 | x8 | x8 |][M:4/4] x8 | x8 | x8 | x8 | x8 | x8 | x8 | z8 | x8 | x8 | x8 | x8 | x8 | x8 | x8 | %56
 x8 | x8 | x8 | x8 | x8 | x8 | x8 | x8 | x8 | x8 | x8 | x8 | x8 | x8 | x8 | x8 | x8 | x8 | x8 | %75
 x8 | x8 | x8 | x8 | x8 | x8 | x8 | x8 | x8 | x8 | x8 | x8 | x8 | x8 | x8 | x8 | x8 | x8 | x8 || %94
[K:Ab] x8 | x8 | x8 | x8 | x8 | x8 | x8 | x8 | x8 | x8 | x8 | x8 | x8 | x8 | x8 | x8 | x8 | x8 | %112
 x8 | x8 | x8 | x8 | x8 | x8 | x8 | x8 | x8 ||[K:Eb] x8 | x8 | x8 | x8 | x8 | x8 | x8 | x8 | x8 | %130
 x8 | x8 | x8 | x8 | x8 | x8 | x8 | x8 | x8 | x8 |][K:Bb][M:3/4] x6 | x6 | x6 | x6 | x6 | x6 | x6 | %147
 x6 | x6 | x6 | x6 | x6 | x6 | x6 | x6 | x6 | x6 | x6 | x6 | x6 | x6 | x6 | x6 | x6 | x6 | x6 | %166
 x6 | x6 | x6 | x6 | x6 | x6 | x6 | x6 | x6 | x6 | x6 ||[K:Eb] x6 | x6 | x6 | x6 | x6 | x6 | x6 | %184
 x6 | x6 | x6 | x6 | x6 | x6 | x6 | x6 | x6 | x6 | x6 | x6 | x6 | x6 | x6 ||[K:Bb][M:4/4] x8 | x8 | %201
 x8 | x8 | x8 | x8 | x8 | x8 | x8 | G,4 ^F,2 z2 | x8 | x8 | x8 | x8 | x8 | x8 | x8 | x8 | x8 | x8 | %219
 x8 | x8 | x8 | x8 | x8 ||[K:Eb][M:3/4] x6 | x6 | x6 | x6 | x6 | x6 | x6 | x6 | x6 | x6 | x6 | x6 | %236
 x6 | x6 | x6 | x6 | x6 | x6 | x6 | x6 | x6 | x6 | x6 | x6 | x6 | x6 ||[K:F] x6 | x6 | x6 | x6 | %254
 x6 | x6 | x6 | x6 | x6 | x6 | x6 | x6 | x6 | x6 | x6 | x6 | x6 ||[K:Bb] x6 | x6 | x6 | x6 | x6 | %272
 x6 | x6 | x6 | x6 | x6 | x6 | x6 | x6 | x6 | x6 | x6 | x6 | x6 | x6 | x6 | x6 | x6 | x6 | x6 | %291
 x6 | x6 | x6 | x6 | x6 | x6 | x6 | x6 | x6 | x6 | x6 | x6 | x6 | x6 | x6 | x6 | x6 |] %308
[K:Eb][M:4/4] x8 | x8 | x8 | x8 | x8 | x8 | x8 | x8 | x8 | x8 || x8 | x8 | x8 | x8 | x8 | x8 | x8 | %325
 x8 | x8 | x8 | x8 | x8 | x8 | x8 | x8 | x8 | x8 | x8 | x8 | x8 | x8 | x8 | x8 |][K:Ab][M:4/4] x8 | %342
 x8 | x8 | x8 | x8 | x8 | x8 | x8 | x8 | x8 | x8 | x8 | x8 | x8 | x8 | x8 | x8 | x8 | x8 | x8 | %361
 x8 | x8 |][K:Eb][M:4/4] x8 | x8 | x8 | x8 | x8 | x8 | x8 | x8 | x8 | x8 | x8 | x8 | x8 | x8 | x8 | %378
 x8 | x8 | x8 | x8 | x8 | x8 | x8 | x8 | x8 | x8 | x8 | x8 | x8 | x8 | x8 || x8 | x8 | x8 | x8 | %397
 x8 | x8 | x8 | x8 | x8 | x8 | x8 | x8 | x8 | x8 | x8 | x8 | x8 | x8 |] %411
V:11
 x8 | x8 | x8 | x8 | x8 | x8 | x8 | x8 | x8 | x8 | x8 | x8 | x8 | x8 | x8 | x8 | x8 || x8 | x8 | %19
 x8 | x8 | x8 | x8 | x8 | x8 | x8 | x8 || x8 | x8 | x8 | x8 | x8 | x8 | x8 | x8 | x8 | x8 | x8 | %38
 x8 | x8 | x8 |][M:4/4] x8 | x8 | x8 | x8 | x8 | x8 | x8 | x8 | x8 | x8 | x8 | x8 | x8 | x8 | x8 | %56
 x8 | x8 | x8 | x8 | x8 | x8 | x8 | x8 | x8 | x8 | x8 | x8 | x8 | x8 | x8 | x8 | x8 | x8 | x8 | %75
 x8 | x8 | x8 | x8 | x8 | x8 | x8 | x8 | x8 | x8 | x8 | x8 | x8 | x8 | x8 | x8 | x8 | x8 | x8 || %94
[K:Ab] x8 | x8 | x8 | x8 | x8 | x8 | x8 | x8 | D8- | D8- | D8- | D8 | x8 | x8 | x8 | x8 | x8 | x8 | %112
 x8 | x8 | x8 | x8 | x8 | x8 | x8 | x8 | x8 ||[K:Eb] x8 | x8 | x8 | x8 | x8 | x8 | x8 | x8 | x8 | %130
 x8 | x8 | x8 | x8 | x8 | x8 | x8 | x8 | x8 | x8 |][K:Bb][M:3/4] x6 | x6 | x6 | x6 | x6 | x6 | x6 | %147
 x6 | x6 | x6 | x6 | x6 | x6 | x6 | x6 | x6 | x6 | x6 | x6 | x6 | x6 | x6 | x6 | x6 | F4 E2 | x6 | %166
 x6 | x6 | x6 | x6 | x6 | x6 | x6 | x6 | x6 | x6 | x6 ||[K:Eb] x6 | x6 | x6 | x6 | x6 | x6 | x6 | %184
 x6 | x6 | x6 | x6 | x6 | x6 | x6 | x6 | x6 | x6 | x6 | x6 | x6 | x6 | x6 ||[K:Bb][M:4/4] x8 | x8 | %201
 x8 | x8 | x8 | x8 | x8 | x8 | x8 | x8 | x8 | x8 | x8 | x8 | x8 | x8 | x8 | x8 | x8 | x8 | x8 | %220
 x8 | x8 | x8 | x8 ||[K:Eb][M:3/4] x6 | x6 | x6 | x6 | x6 | x6 | x6 | x6 | x6 | x6 | x6 | x6 | x6 | %237
 x6 | x6 | x6 | x6 | x6 | x6 | x6 | x6 | x6 | x6 | x6 | x6 | x6 ||[K:F] x6 | x6 | x6 | x6 | x6 | %255
 x6 | x6 | x6 | x6 | x6 | x6 | x6 | x6 | x6 | x6 | x6 | x6 ||[K:Bb] x6 | x6 | x6 | x6 | x6 | x6 | %273
 x6 | x6 | x6 | x6 | x6 | x6 | x6 | x6 | x6 | x6 | x6 | x6 | x6 | x6 | x6 | x6 | x6 | x6 | x6 | %292
 x6 | x6 | x6 | x6 | x6 | x6 | x6 | x6 | x6 | x6 | x6 | x6 | x6 | x6 | x6 | x6 |][K:Eb][M:4/4] x8 | %309
 x8 | x8 | x8 | x8 | x8 | x8 | x8 | x8 | x8 || x8 | x8 | x8 | x8 | x8 | x8 | x8 | x8 | x8 | x8 | %328
 x8 | x8 | x8 | x8 | x8 | x8 | x8 | x8 | x8 | x8 | x8 | x8 | x8 |][K:Ab][M:4/4] x8 | x8 | x8 | x8 | %345
 x8 | x8 | x8 | x8 | x8 | x8 | x8 | x8 | x8 | x8 | x8 | x8 | x8 | x8 | x8 | x8 | x8 | x8 |] %363
[K:Eb][M:4/4] x8 | x8 | x8 | x8 | x8 | x8 | x8 | x8 | x8 | x8 | x8 | x8 | x8 | x8 | x8 | x8 | x8 | %380
 x8 | x8 | x8 | x8 | x8 | x8 | x8 | x8 | x8 | x8 | x8 | x8 | x8 || x8 | x8 | x8 | x8 | x8 | x8 | %399
 x8 | x8 | x8 | x8 | x8 | x8 | x8 | x8 | x8 | x8 | x8 | x8 |] %411

